;FLAVOR:Marlin
;TIME:1378
;Filament used: 1.0863m
;Layer height: 0.2
;MINX:14.279
;MINY:14.108
;MINZ:0.2
;MAXX:74.379
;MAXY:74.208
;MAXZ:10
;TARGET_MACHINE.NAME:Creality Ender-3
;Generated with Cura_SteamEngine 5.9.0
M140 S50
M105
M190 S50
M104 S200
M105
M109 S200
M82 ;absolute extrusion mode
; Ender 3 Custom Start G-code
G92 E0 ; Reset Extruder
G28 ; Home all axes
G1 Z2.0 F3000 ; Move Z Axis up little to prevent scratching of Heat Bed
G1 X0.1 Y20 Z0.3 F5000.0 ; Move to start position
G1 X0.1 Y200.0 Z0.3 F1500.0 E15 ; Draw the first line
G1 X0.4 Y200.0 Z0.3 F5000.0 ; Move to side a little
G1 X0.4 Y20 Z0.3 F1500.0 E30 ; Draw the second line
G92 E0 ; Reset Extruder
G1 Z2.0 F3000 ; Move Z Axis up little to prevent scratching of Heat Bed
G1 X5 Y20 Z0.3 F5000.0 ; Move over to prevent blob squish
G92 E0
G92 E0
G1 F2700 E-5
;LAYER_COUNT:50
;LAYER:0
M107
G0 F6000 X15.34 Y36.227 Z0.2
;TYPE:SKIRT
G1 F2700 E0
G1 F1200 X15.688 Y35.058 E0.04057
G1 X16.152 Y33.72 E0.08767
G1 X16.624 Y32.516 E0.13068
G1 X17.161 Y31.322 E0.17423
G1 X17.749 Y30.134 E0.21831
G1 X18.274 Y29.178 E0.25459
G1 X19.076 Y27.869 E0.30565
G1 X19.808 Y26.785 E0.34915
G1 X20.536 Y25.8 E0.38989
G1 X21.396 Y24.734 E0.43545
G1 X22.195 Y23.83 E0.47557
G1 X23.208 Y22.785 E0.52398
G1 X24.11 Y21.93 E0.56532
G1 X25.16 Y21.021 E0.61151
G1 X26.197 Y20.199 E0.65552
G1 X27.248 Y19.441 E0.69862
G1 X28.356 Y18.706 E0.74284
G1 X29.453 Y18.05 E0.78536
G1 X30.568 Y17.443 E0.82758
G1 X31.795 Y16.851 E0.87289
G1 X33.009 Y16.328 E0.91686
G1 X34.217 Y15.865 E0.95989
G1 X35.455 Y15.45 E1.00332
G1 X36.727 Y15.081 E1.04737
G1 X37.941 Y14.788 E1.0889
G1 X39.142 Y14.555 E1.12959
G1 X40.623 Y14.337 E1.17938
G1 X41.891 Y14.212 E1.22176
G1 X43.213 Y14.129 E1.26582
G1 X44.534 Y14.108 E1.30976
G1 X45.817 Y14.148 E1.35245
G1 X47.133 Y14.241 E1.39633
G1 X48.365 Y14.38 E1.43757
G1 X49.744 Y14.602 E1.48403
G1 X50.944 Y14.849 E1.52477
G1 X52.289 Y15.179 E1.57084
G1 X53.444 Y15.521 E1.6109
G1 X54.719 Y15.961 E1.65576
G1 X56.013 Y16.476 E1.70208
G1 X57.187 Y16.999 E1.74483
G1 X58.36 Y17.582 E1.7884
G1 X59.418 Y18.166 E1.82859
G1 X60.615 Y18.904 E1.87536
G1 X61.698 Y19.634 E1.9188
G1 X62.726 Y20.39 E1.96124
G1 X63.599 Y21.093 E1.99852
G1 X64.75 Y22.108 E2.04957
G1 X65.535 Y22.862 E2.08577
G1 X66.613 Y24.004 E2.138
G1 X67.467 Y24.989 E2.18136
G1 X68.278 Y26.014 E2.22483
G1 X69.047 Y27.079 E2.26852
G1 X69.773 Y28.171 E2.31214
G1 X70.415 Y29.24 E2.35361
G1 X71.075 Y30.461 E2.39978
G1 X71.635 Y31.617 E2.4425
G1 X72.151 Y32.804 E2.48555
G1 X72.602 Y33.982 E2.5275
G1 X73.037 Y35.286 E2.57322
G1 X73.406 Y36.558 E2.61727
G1 X73.694 Y37.752 E2.65812
G1 X73.934 Y38.988 E2.7
G1 X74.149 Y40.448 E2.74909
G1 X74.275 Y41.724 E2.79173
G1 X74.357 Y43.034 E2.83539
G1 X74.379 Y44.37 E2.87983
G1 X74.338 Y45.653 E2.92252
G1 X74.242 Y46.967 E2.96634
G1 X74.1 Y48.223 E3.00838
G1 X73.885 Y49.568 E3.05369
G1 X73.627 Y50.829 E3.0965
G1 X73.338 Y52.01 E3.13694
G1 X72.943 Y53.335 E3.18292
G1 X72.498 Y54.61 E3.22784
G1 X72.009 Y55.845 E3.27202
G1 X71.485 Y57.019 E3.31478
G1 X70.902 Y58.192 E3.35834
G1 X70.304 Y59.27 E3.39935
G1 X69.575 Y60.443 E3.44528
G1 X68.842 Y61.54 E3.48916
G1 X68.087 Y62.569 E3.53161
G1 X67.405 Y63.415 E3.56775
G1 X66.378 Y64.579 E3.61938
G1 X65.597 Y65.392 E3.65688
G1 X64.484 Y66.442 E3.70777
G1 X63.506 Y67.292 E3.75087
G1 X62.531 Y68.07 E3.79236
G1 X61.451 Y68.848 E3.83663
G1 X60.315 Y69.602 E3.88198
G1 X59.23 Y70.253 E3.92406
G1 X58.025 Y70.904 E3.96961
G1 X56.869 Y71.464 E4.01234
G1 X55.682 Y71.98 E4.05539
G1 X54.504 Y72.431 E4.09734
G1 X53.201 Y72.866 E4.14303
G1 X51.929 Y73.235 E4.18708
G1 X50.753 Y73.519 E4.22732
G1 X49.503 Y73.762 E4.26967
G1 X48.054 Y73.977 E4.31839
G1 X46.766 Y74.104 E4.36144
G1 X45.445 Y74.187 E4.40546
G1 X44.124 Y74.208 E4.44941
G1 X42.84 Y74.168 E4.49213
G1 X41.524 Y74.075 E4.53601
G1 X40.289 Y73.936 E4.57735
G1 X38.919 Y73.714 E4.62351
G1 X37.658 Y73.456 E4.66632
G1 X36.477 Y73.167 E4.70676
G1 X35.152 Y72.772 E4.75274
G1 X33.877 Y72.327 E4.79766
G1 X32.642 Y71.838 E4.84184
G1 X31.463 Y71.311 E4.88479
G1 X30.297 Y70.731 E4.9281
G1 X29.205 Y70.125 E4.96964
G1 X28.062 Y69.42 E5.01431
G1 X26.945 Y68.668 E5.0591
G1 X25.93 Y67.919 E5.10105
G1 X24.945 Y67.125 E5.14313
G1 X23.941 Y66.236 E5.18773
G1 X23.024 Y65.352 E5.2301
G1 X22.1 Y64.377 E5.27477
G1 X21.192 Y63.326 E5.32097
G1 X20.37 Y62.29 E5.36496
G1 X19.612 Y61.239 E5.40806
G1 X18.884 Y60.144 E5.45179
G1 X18.233 Y59.059 E5.49387
G1 X17.583 Y57.854 E5.53941
G1 X17.022 Y56.693 E5.5823
G1 X16.499 Y55.478 E5.62629
G1 X16.031 Y54.257 E5.66979
G1 X15.62 Y53.028 E5.71289
G1 X15.252 Y51.76 E5.7568
G1 X14.959 Y50.546 E5.79834
G1 X14.726 Y49.346 E5.839
G1 X14.508 Y47.867 E5.88872
G1 X14.382 Y46.589 E5.93143
G1 X14.3 Y45.274 E5.97525
G1 X14.279 Y43.953 E6.0192
G1 X14.319 Y42.673 E6.06179
G1 X14.411 Y41.352 E6.10583
G1 X14.548 Y40.137 E6.1465
G1 X14.773 Y38.747 E6.19333
G1 X15.031 Y37.488 E6.23608
G1 X15.34 Y36.227 E6.27926
G0 F6000 X15.729 Y36.322
G1 F1200 X16.066 Y35.189 E6.31858
G1 X16.524 Y33.866 E6.36514
G1 X16.989 Y32.68 E6.40751
G1 X17.52 Y31.499 E6.45058
G1 X18.1 Y30.327 E6.49407
G1 X18.625 Y29.371 E6.53035
G1 X19.407 Y28.093 E6.58018
G1 X20.13 Y27.023 E6.62313
G1 X20.858 Y26.038 E6.66387
G1 X21.696 Y24.999 E6.70827
G1 X22.495 Y24.095 E6.74839
G1 X23.483 Y23.075 E6.79563
G1 X24.372 Y22.232 E6.83637
G1 X25.409 Y21.334 E6.882
G1 X26.431 Y20.523 E6.92539
G1 X27.469 Y19.774 E6.96797
G1 X28.561 Y19.049 E7.01156
G1 X29.644 Y18.401 E7.05354
G1 X30.742 Y17.803 E7.09512
G1 X31.953 Y17.218 E7.13986
G1 X33.152 Y16.702 E7.18327
G1 X34.36 Y16.239 E7.2263
G1 X35.567 Y15.834 E7.26864
G1 X36.821 Y15.47 E7.31207
G1 X38.017 Y15.181 E7.353
G1 X39.201 Y14.951 E7.39311
G1 X40.662 Y14.735 E7.44223
G1 X41.916 Y14.611 E7.48415
G1 X43.219 Y14.529 E7.52757
G1 X44.522 Y14.508 E7.57091
G1 X45.789 Y14.547 E7.61307
G1 X47.088 Y14.638 E7.65638
G1 X48.301 Y14.775 E7.69699
G1 X49.663 Y14.994 E7.74287
G1 X50.849 Y15.238 E7.78314
G1 X52.175 Y15.563 E7.82855
G1 X53.33 Y15.905 E7.86861
G1 X54.571 Y16.333 E7.91227
G1 X55.85 Y16.841 E7.95805
G1 X57.009 Y17.357 E8.00024
G1 X58.167 Y17.932 E8.04325
G1 X59.208 Y18.507 E8.0828
G1 X60.391 Y19.236 E8.12902
G1 X61.474 Y19.966 E8.17246
G1 X62.475 Y20.701 E8.21376
G1 X63.334 Y21.393 E8.25045
G1 X64.485 Y22.408 E8.30149
G1 X65.244 Y23.137 E8.33649
G1 X66.311 Y24.266 E8.38816
G1 X67.153 Y25.237 E8.43091
G1 X67.954 Y26.248 E8.47381
G1 X68.714 Y27.3 E8.51697
G1 X69.43 Y28.377 E8.55999
G1 X70.063 Y29.43 E8.60085
G1 X70.715 Y30.635 E8.64642
G1 X71.268 Y31.776 E8.68859
G1 X71.777 Y32.947 E8.73106
G1 X72.228 Y34.125 E8.77302
G1 X72.653 Y35.398 E8.81765
G1 X73.017 Y36.652 E8.86108
G1 X73.301 Y37.828 E8.90132
G1 X73.538 Y39.047 E8.94262
G1 X73.751 Y40.487 E8.99104
G1 X73.876 Y41.749 E9.03322
G1 X73.957 Y43.041 E9.07628
G1 X73.979 Y44.357 E9.12005
G1 X73.939 Y45.624 E9.16221
G1 X73.845 Y46.922 E9.2055
G1 X73.705 Y48.16 E9.24694
G1 X73.493 Y49.488 E9.29167
G1 X73.238 Y50.734 E9.33397
G1 X72.949 Y51.915 E9.37441
G1 X72.565 Y53.203 E9.41911
G1 X72.126 Y54.463 E9.46349
G1 X71.644 Y55.682 E9.50709
G1 X71.127 Y56.841 E9.5493
G1 X70.552 Y57.998 E9.59227
G1 X69.964 Y59.059 E9.63261
G1 X69.243 Y60.221 E9.6781
G1 X68.519 Y61.303 E9.7214
G1 X67.764 Y62.332 E9.76385
G1 X67.105 Y63.15 E9.79878
G1 X66.078 Y64.314 E9.85041
G1 X65.322 Y65.101 E9.88671
G1 X64.222 Y66.14 E9.93704
G1 X63.257 Y66.979 E9.97957
G1 X62.297 Y67.745 E10.02042
G1 X61.217 Y68.523 E10.06469
G1 X60.109 Y69.259 E10.10893
G1 X59.04 Y69.901 E10.1504
G1 X57.851 Y70.544 E10.19536
G1 X56.71 Y71.097 E10.23753
G1 X55.539 Y71.606 E10.28
G1 X54.361 Y72.057 E10.32196
G1 X53.089 Y72.482 E10.36656
G1 X51.835 Y72.846 E10.40999
G1 X50.677 Y73.126 E10.44962
G1 X49.444 Y73.366 E10.4914
G1 X48.015 Y73.579 E10.53945
G1 X46.741 Y73.705 E10.58203
G1 X45.439 Y73.787 E10.62542
G1 X44.136 Y73.808 E10.66876
G1 X42.868 Y73.769 E10.71096
G1 X41.569 Y73.678 E10.75427
G1 X40.353 Y73.541 E10.79497
G1 X38.999 Y73.322 E10.84059
G1 X37.753 Y73.067 E10.88289
G1 X36.572 Y72.778 E10.92333
G1 X35.284 Y72.394 E10.96803
G1 X34.024 Y71.955 E11.01241
G1 X32.805 Y71.473 E11.05601
G1 X31.641 Y70.953 E11.09841
G1 X30.491 Y70.381 E11.14113
G1 X29.415 Y69.785 E11.18204
G1 X28.285 Y69.088 E11.2262
G1 X27.183 Y68.346 E11.27039
G1 X26.168 Y67.597 E11.31234
G1 X25.21 Y66.825 E11.35326
G1 X24.219 Y65.948 E11.39728
G1 X23.302 Y65.064 E11.43964
G1 X22.403 Y64.115 E11.48312
G1 X21.505 Y63.077 E11.52877
G1 X20.694 Y62.056 E11.57214
G1 X19.945 Y61.018 E11.61471
G1 X19.227 Y59.938 E11.65785
G1 X18.585 Y58.869 E11.69932
G1 X17.943 Y57.68 E11.74426
G1 X17.389 Y56.535 E11.78657
G1 X16.872 Y55.335 E11.83003
G1 X16.41 Y54.13 E11.87295
G1 X16.004 Y52.917 E11.9155
G1 X15.641 Y51.666 E11.95882
G1 X15.352 Y50.47 E11.99974
G1 X15.122 Y49.287 E12.03983
G1 X14.906 Y47.828 E12.08888
G1 X14.781 Y46.564 E12.13113
G1 X14.7 Y45.268 E12.17432
G1 X14.679 Y43.965 E12.21766
G1 X14.718 Y42.701 E12.25972
G1 X14.808 Y41.397 E12.3032
G1 X14.943 Y40.201 E12.34323
G1 X15.165 Y38.827 E12.38952
G1 X15.42 Y37.583 E12.43176
G1 X15.729 Y36.322 E12.47494
G0 F6000 X16.118 Y36.417
G1 F1200 X16.444 Y35.32 E12.513
G1 X16.897 Y34.012 E12.55904
G1 X17.354 Y32.844 E12.60076
G1 X17.879 Y31.676 E12.64335
G1 X18.451 Y30.52 E12.68625
G1 X18.976 Y29.564 E12.72252
G1 X19.739 Y28.317 E12.77115
G1 X20.452 Y27.261 E12.81353
G1 X21.18 Y26.276 E12.85426
G1 X21.996 Y25.264 E12.8975
G1 X22.795 Y24.36 E12.93763
G1 X23.758 Y23.365 E12.98368
G1 X24.634 Y22.534 E13.02384
G1 X25.658 Y21.647 E13.0689
G1 X26.665 Y20.847 E13.11168
G1 X27.69 Y20.107 E13.15373
G1 X28.766 Y19.392 E13.1967
G1 X29.835 Y18.752 E13.23814
G1 X30.916 Y18.163 E13.27908
G1 X32.111 Y17.585 E13.32323
G1 X33.295 Y17.075 E13.36611
G1 X34.487 Y16.618 E13.40857
G1 X35.678 Y16.218 E13.45036
G1 X36.915 Y15.859 E13.4932
G1 X38.093 Y15.574 E13.53351
G1 X39.26 Y15.347 E13.57305
G1 X40.701 Y15.133 E13.6215
G1 X41.941 Y15.01 E13.66295
G1 X43.226 Y14.929 E13.70577
G1 X44.51 Y14.908 E13.74848
G1 X45.761 Y14.946 E13.79011
G1 X47.043 Y15.035 E13.83285
G1 X48.238 Y15.17 E13.87285
G1 X49.582 Y15.386 E13.91813
G1 X50.768 Y15.63 E13.9584
G1 X52.061 Y15.947 E14.00268
G1 X53.216 Y16.289 E14.04274
G1 X54.424 Y16.705 E14.08524
G1 X55.687 Y17.206 E14.13043
G1 X56.831 Y17.715 E14.17208
G1 X57.974 Y18.282 E14.21451
G1 X58.998 Y18.847 E14.25341
G1 X60.167 Y19.568 E14.29909
G1 X61.237 Y20.289 E14.34201
G1 X62.224 Y21.013 E14.38272
G1 X63.069 Y21.693 E14.41879
G1 X64.208 Y22.697 E14.46929
G1 X64.953 Y23.412 E14.50364
G1 X66.009 Y24.528 E14.55474
G1 X66.84 Y25.486 E14.59692
G1 X67.63 Y26.482 E14.6392
G1 X68.381 Y27.521 E14.68184
G1 X69.087 Y28.583 E14.72426
G1 X69.711 Y29.62 E14.76451
G1 X70.355 Y30.81 E14.80952
G1 X70.901 Y31.935 E14.85111
G1 X71.403 Y33.09 E14.89299
G1 X71.854 Y34.268 E14.93495
G1 X72.269 Y35.509 E14.97847
G1 X72.628 Y36.746 E15.02131
G1 X72.908 Y37.904 E15.06094
G1 X73.142 Y39.106 E15.10167
G1 X73.353 Y40.527 E15.14945
G1 X73.477 Y41.774 E15.19113
G1 X73.557 Y43.048 E15.23358
G1 X73.579 Y44.345 E15.27673
G1 X73.54 Y45.595 E15.31832
G1 X73.448 Y46.877 E15.36107
G1 X73.31 Y48.097 E15.40191
G1 X73.101 Y49.408 E15.44606
G1 X72.849 Y50.639 E15.48786
G1 X72.56 Y51.82 E15.52829
G1 X72.187 Y53.072 E15.57174
G1 X71.754 Y54.316 E15.61556
G1 X71.279 Y55.519 E15.65857
G1 X70.769 Y56.663 E15.70023
G1 X70.202 Y57.804 E15.74261
G1 X69.624 Y58.848 E15.7823
G1 X68.911 Y59.999 E15.82733
G1 X68.197 Y61.066 E15.87003
G1 X67.452 Y62.081 E15.91191
G1 X66.805 Y62.885 E15.94623
G1 X65.789 Y64.037 E15.99732
G1 X65.047 Y64.81 E16.03296
G1 X63.959 Y65.838 E16.08275
G1 X63.007 Y66.666 E16.12471
G1 X62.063 Y67.42 E16.16489
G1 X60.983 Y68.198 E16.20916
G1 X59.903 Y68.916 E16.2523
G1 X58.85 Y69.549 E16.29316
G1 X57.676 Y70.184 E16.33756
G1 X56.551 Y70.73 E16.37915
G1 X55.396 Y71.232 E16.42104
G1 X54.218 Y71.683 E16.46299
G1 X52.978 Y72.098 E16.50648
G1 X51.741 Y72.457 E16.54932
G1 X50.6 Y72.733 E16.58836
G1 X49.385 Y72.97 E16.62954
G1 X47.976 Y73.181 E16.67692
G1 X46.716 Y73.306 E16.71904
G1 X45.432 Y73.387 E16.76183
G1 X44.148 Y73.408 E16.80454
G1 X42.896 Y73.37 E16.8462
G1 X41.614 Y73.281 E16.88894
G1 X40.417 Y73.146 E16.92901
G1 X39.079 Y72.93 E16.97409
G1 X37.848 Y72.678 E17.01588
G1 X36.667 Y72.389 E17.05632
G1 X35.415 Y72.016 E17.09977
G1 X34.171 Y71.583 E17.14358
G1 X32.968 Y71.108 E17.1866
G1 X31.819 Y70.595 E17.22845
G1 X30.685 Y70.031 E17.27057
G1 X29.625 Y69.445 E17.31086
G1 X28.508 Y68.756 E17.35451
G1 X27.421 Y68.024 E17.39809
G1 X26.406 Y67.275 E17.44005
G1 X25.475 Y66.525 E17.47981
G1 X24.497 Y65.66 E17.52324
G1 X23.58 Y64.776 E17.5656
G1 X22.705 Y63.853 E17.6079
G1 X21.818 Y62.828 E17.65299
G1 X21.018 Y61.822 E17.69574
G1 X20.278 Y60.797 E17.73779
G1 X19.57 Y59.732 E17.78032
G1 X18.937 Y58.679 E17.82119
G1 X18.303 Y57.506 E17.86553
G1 X17.756 Y56.377 E17.90726
G1 X17.245 Y55.192 E17.95018
G1 X16.789 Y54.003 E17.99254
G1 X16.388 Y52.806 E18.03452
G1 X16.03 Y51.572 E18.07726
G1 X15.745 Y50.394 E18.11757
G1 X15.518 Y49.228 E18.15708
G1 X15.304 Y47.788 E18.2055
G1 X15.18 Y46.539 E18.24725
G1 X15.1 Y45.261 E18.28983
G1 X15.079 Y43.977 E18.33255
G1 X15.117 Y42.728 E18.37411
G1 X15.205 Y41.442 E18.41698
G1 X15.338 Y40.265 E18.45638
G1 X15.557 Y38.907 E18.50213
G1 X15.809 Y37.678 E18.54385
G1 X16.118 Y36.417 E18.58704
G0 F6000 X16.502 Y36.531
G1 F1200 X16.822 Y35.451 E18.6245
G1 X17.269 Y34.158 E18.67
G1 X17.719 Y33.008 E18.71108
G1 X18.238 Y31.853 E18.75319
G1 X18.802 Y30.713 E18.7955
G1 X19.327 Y29.757 E18.83177
G1 X20.071 Y28.541 E18.87919
G1 X20.774 Y27.499 E18.92099
G1 X21.502 Y26.514 E18.96173
G1 X22.296 Y25.529 E19.00381
G1 X23.095 Y24.625 E19.04394
G1 X24.034 Y23.655 E19.08884
G1 X24.896 Y22.836 E19.12839
G1 X25.907 Y21.96 E19.17288
G1 X26.899 Y21.171 E19.21504
G1 X27.911 Y20.44 E19.25656
G1 X28.972 Y19.735 E19.29893
G1 X30.027 Y19.103 E19.33983
G1 X31.09 Y18.523 E19.38011
G1 X32.269 Y17.952 E19.42368
G1 X33.438 Y17.448 E19.46602
G1 X34.614 Y16.997 E19.50791
G1 X35.79 Y16.602 E19.54917
G1 X37.009 Y16.248 E19.59139
G1 X38.17 Y15.967 E19.63112
G1 X39.319 Y15.743 E19.67006
G1 X40.741 Y15.531 E19.71788
G1 X41.966 Y15.409 E19.75882
G1 X43.233 Y15.329 E19.80105
G1 X44.498 Y15.308 E19.84313
G1 X45.734 Y15.345 E19.88425
G1 X46.998 Y15.432 E19.92639
G1 X48.175 Y15.565 E19.96579
G1 X49.501 Y15.778 E20.01046
G1 X50.687 Y16.022 E20.05073
G1 X51.947 Y16.331 E20.09388
G1 X53.102 Y16.673 E20.13395
G1 X54.277 Y17.077 E20.17527
G1 X55.524 Y17.571 E20.21988
G1 X56.653 Y18.073 E20.26098
G1 X57.781 Y18.632 E20.30285
G1 X58.788 Y19.187 E20.34109
G1 X59.944 Y19.9 E20.38627
G1 X61 Y20.611 E20.42861
G1 X61.973 Y21.325 E20.46875
G1 X62.818 Y22.005 E20.50482
G1 X63.931 Y22.986 E20.55417
G1 X64.676 Y23.701 E20.58851
G1 X65.707 Y24.79 E20.63839
G1 X66.527 Y25.735 E20.68001
G1 X67.306 Y26.716 E20.72167
G1 X68.048 Y27.742 E20.76378
G1 X68.744 Y28.789 E20.8056
G1 X69.359 Y29.81 E20.84524
G1 X69.995 Y30.985 E20.88968
G1 X70.534 Y32.094 E20.93069
G1 X71.029 Y33.233 E20.972
G1 X71.48 Y34.411 E21.01395
G1 X71.885 Y35.62 E21.05636
G1 X72.239 Y36.84 E21.09861
G1 X72.515 Y37.981 E21.13766
G1 X72.746 Y39.165 E21.17778
G1 X72.955 Y40.567 E21.22492
G1 X73.078 Y41.799 E21.2661
G1 X73.157 Y43.055 E21.30796
G1 X73.179 Y44.333 E21.35047
G1 X73.141 Y45.567 E21.39154
G1 X73.051 Y46.832 E21.43372
G1 X72.915 Y48.034 E21.47395
G1 X72.709 Y49.328 E21.51753
G1 X72.46 Y50.544 E21.55882
G1 X72.171 Y51.725 E21.59925
G1 X71.809 Y52.941 E21.64145
G1 X71.382 Y54.169 E21.6847
G1 X70.914 Y55.356 E21.72713
G1 X70.411 Y56.485 E21.76824
G1 X69.852 Y57.61 E21.81002
G1 X69.284 Y58.637 E21.84906
G1 X68.578 Y59.777 E21.89366
