;FLAVOR:Marlin
;TIME:919
;Filament used: 0.439584m
;Layer height: 0.2
;MINX:87.282
;MINY:162.883
;MINZ:0.2
;MAXX:228.789
;MAXY:219.475
;MAXZ:1
;TARGET_MACHINE.NAME:Creality Ender-3
;Generated with Cura_SteamEngine 5.9.0
M140 S50
M105
M190 S50
M104 S200
M105
M109 S200
M82 ;absolute extrusion mode
; Ender 3 Custom Start G-code
G92 E0 ; Reset Extruder
G28 ; Home all axes
G1 Z2.0 F3000 ; Move Z Axis up little to prevent scratching of Heat Bed
G1 X0.1 Y20 Z0.3 F5000.0 ; Move to start position
G1 X0.1 Y200.0 Z0.3 F1500.0 E15 ; Draw the first line
G1 X0.4 Y200.0 Z0.3 F5000.0 ; Move to side a little
G1 X0.4 Y20 Z0.3 F1500.0 E30 ; Draw the second line
G92 E0 ; Reset Extruder
G1 Z2.0 F3000 ; Move Z Axis up little to prevent scratching of Heat Bed
G1 X5 Y20 Z0.3 F5000.0 ; Move over to prevent blob squish
G92 E0
G92 E0
G1 F2700 E-5
;LAYER_COUNT:5
;LAYER:0
M107
G0 F6000 X203.377 Y219.304 Z0.2
;TYPE:SKIRT
G1 F2700 E0
G1 F1200 X202.35 Y219.335 E0.03417
G1 X200.023 Y219.466 E0.11169
G1 X199.046 Y219.475 E0.14419
G1 X198.071 Y219.397 E0.17672
G1 X197.376 Y219.302 E0.20005
G1 X195.439 Y218.987 E0.26532
G1 X193.175 Y218.581 E0.34183
G1 X190.636 Y218.171 E0.42737
G1 X188.135 Y217.839 E0.51128
G1 X185.645 Y217.58 E0.59454
G1 X183.148 Y217.391 E0.67783
G1 X180.584 Y217.27 E0.76321
G1 X178.112 Y217.222 E0.84544
G1 X175.58 Y217.247 E0.92966
G1 X173.059 Y217.341 E1.01357
G1 X170.541 Y217.508 E1.0975
G1 X168.038 Y217.744 E1.18112
G1 X165.54 Y218.052 E1.26483
G1 X163.014 Y218.435 E1.34981
G1 X161.784 Y218.644 E1.3913
G1 X160.488 Y218.782 E1.43465
G1 X159.527 Y218.825 E1.46665
G1 X158.507 Y218.858 E1.50059
G1 X156.311 Y218.981 E1.57374
G1 X155.329 Y218.99 E1.60641
G1 X154.223 Y218.894 E1.64333
G1 X152.933 Y218.709 E1.68668
G1 X148.883 Y218.044 E1.82318
G1 X146.407 Y217.714 E1.90626
G1 X143.891 Y217.45 E1.99041
G1 X141.406 Y217.259 E2.0733
G1 X138.863 Y217.136 E2.15798
G1 X136.364 Y217.086 E2.24111
G1 X133.838 Y217.107 E2.32513
G1 X131.332 Y217.199 E2.40854
G1 X128.793 Y217.363 E2.49316
G1 X126.327 Y217.594 E2.57554
G1 X123.809 Y217.902 E2.65991
G1 X121.277 Y218.282 E2.74507
G1 X119.994 Y218.498 E2.78834
G1 X118.714 Y218.633 E2.83115
G1 X117.753 Y218.676 E2.86315
G1 X116.733 Y218.709 E2.89709
G1 X114.537 Y218.832 E2.97025
G1 X113.555 Y218.841 E3.00291
G1 X112.449 Y218.745 E3.03983
G1 X111.173 Y218.562 E3.08271
G1 X110.053 Y218.38 E3.12045
G1 X109.182 Y218.224 E3.14988
G1 X108.224 Y218.007 E3.18255
G1 X107.166 Y217.657 E3.21961
G1 X105.353 Y216.933 E3.28454
G1 X103.181 Y216.108 E3.36182
G1 X102.286 Y215.718 E3.39429
G1 X101.363 Y215.213 E3.42928
G1 X100.809 Y214.868 E3.45099
G1 X99.292 Y213.873 E3.51133
G1 X98.571 Y213.385 E3.54029
G1 X97.846 Y212.846 E3.57034
G1 X96.928 Y212.012 E3.61159
G1 X95.569 Y210.613 E3.67646
G1 X93.973 Y209.029 E3.75125
G1 X93.312 Y208.309 E3.78376
G1 X92.686 Y207.487 E3.81812
G1 X92.311 Y206.934 E3.84035
G1 X91.256 Y205.291 E3.90529
G1 X90.873 Y204.675 E3.92941
G1 X90.412 Y203.854 E3.96073
G1 X89.929 Y202.758 E4.00057
G1 X89.615 Y201.924 E4.03021
G1 X89.248 Y200.906 E4.0662
G1 X88.432 Y198.807 E4.1411
G1 X88.132 Y197.917 E4.17234
G1 X87.876 Y196.841 E4.20913
G1 X87.762 Y196.191 E4.23107
G1 X87.499 Y194.486 E4.28845
G1 X87.37 Y193.551 E4.31985
G1 X87.282 Y192.574 E4.35247
G1 X87.29 Y191.428 E4.39059
G1 X87.345 Y190.495 E4.42168
G1 X87.417 Y189.503 E4.45476
G1 X87.523 Y187.303 E4.52801
G1 X87.62 Y186.289 E4.56189
G1 X87.84 Y185.161 E4.60012
G1 X88.107 Y184.09 E4.63683
G1 X88.656 Y182.11 E4.70517
G1 X88.972 Y181.156 E4.73859
G1 X89.52 Y179.942 E4.7829
G1 X90.368 Y178.336 E4.8433
G1 X91.391 Y176.308 E4.91885
G1 X91.833 Y175.521 E4.94887
G1 X92.526 Y174.524 E4.98925
G1 X93.374 Y173.445 E5.0349
G1 X94.029 Y172.645 E5.06929
G1 X94.607 Y171.958 E5.09915
G1 X95.275 Y171.237 E5.13184
G1 X96.134 Y170.474 E5.17005
G1 X97.611 Y169.312 E5.23256
G1 X99.397 Y167.856 E5.3092
G1 X100.121 Y167.316 E5.33924
G1 X101.186 Y166.675 E5.38058
G1 X102.359 Y166.059 E5.42465
G1 X103.994 Y165.246 E5.48538
G1 X104.82 Y164.88 E5.51543
G1 X106.098 Y164.463 E5.56014
G1 X108.025 Y163.975 E5.62626
G1 X110.156 Y163.394 E5.69972
G1 X111.11 Y163.181 E5.73223
G1 X112.164 Y163.047 E5.76757
G1 X112.819 Y162.999 E5.78942
G1 X114.636 Y162.911 E5.84992
G1 X115.488 Y162.883 E5.87827
G1 X116.469 Y162.897 E5.91091
G1 X117.602 Y163.022 E5.94882
G1 X118.65 Y163.195 E5.98415
G1 X119.662 Y163.377 E6.01835
G1 X123.551 Y163.968 E6.14918
G1 X126.063 Y164.295 E6.23343
G1 X128.557 Y164.548 E6.31681
G1 X131.054 Y164.73 E6.40008
G1 X133.584 Y164.843 E6.48431
G1 X136.124 Y164.886 E6.56881
G1 X138.583 Y164.856 E6.6506
G1 X141.16 Y164.752 E6.73638
G1 X143.646 Y164.582 E6.81926
G1 X146.132 Y164.341 E6.90233
G1 X148.652 Y164.024 E6.98681
G1 X151.145 Y163.639 E7.07071
G1 X152.93 Y163.323 E7.131
G1 X153.98 Y163.192 E7.16619
G1 X154.593 Y163.148 E7.18663
G1 X156.592 Y163.053 E7.2532
G1 X157.303 Y163.032 E7.27685
G1 X158.283 Y163.048 E7.30945
G1 X159.368 Y163.169 E7.34576
G1 X161.389 Y163.517 E7.41397
G1 X163.573 Y163.853 E7.48747
G1 X164.669 Y164.042 E7.52446
G1 X167.182 Y164.445 E7.60911
G1 X169.689 Y164.774 E7.69321
G1 X172.197 Y165.032 E7.77706
G1 X174.702 Y165.216 E7.8606
G1 X177.23 Y165.332 E7.94478
G1 X179.739 Y165.376 E8.02824
G1 X182.231 Y165.349 E8.11113
G1 X184.76 Y165.249 E8.19531
G1 X187.31 Y165.077 E8.28031
G1 X189.747 Y164.843 E8.36174
G1 X192.307 Y164.524 E8.44755
G1 X194.794 Y164.142 E8.53123
G1 X196.677 Y163.808 E8.59484
G1 X197.737 Y163.675 E8.63037
G1 X198.39 Y163.629 E8.65214
G1 X200.18 Y163.543 E8.71175
G1 X201.019 Y163.515 E8.73967
G1 X202.001 Y163.528 E8.77233
G1 X203.141 Y163.655 E8.81049
G1 X204.158 Y163.823 E8.84477
G1 X205.088 Y163.993 E8.87621
G1 X207.311 Y164.333 E8.95101
G1 X208.263 Y164.525 E8.98331
G1 X209.135 Y164.779 E9.01352
G1 X209.781 Y165.009 E9.03633
G1 X211.692 Y165.751 E9.10451
G1 X212.399 Y166.038 E9.12989
G1 X213.255 Y166.432 E9.16123
G1 X214.265 Y167.021 E9.20012
G1 X215.147 Y167.603 E9.23527
G1 X215.909 Y168.123 E9.26595
G1 X217.771 Y169.32 E9.33957
G1 X218.539 Y169.866 E9.37091
G1 X219.449 Y170.654 E9.41095
G1 X220.39 Y171.57 E9.45463
G1 X221.239 Y172.428 E9.49477
G1 X221.757 Y172.966 E9.51961
G1 X222.379 Y173.674 E9.55096
G1 X223.071 Y174.635 E9.59035
G1 X223.576 Y175.424 E9.6215
G1 X224.151 Y176.351 E9.65779
G1 X225.359 Y178.19 E9.73097
G1 X225.821 Y178.966 E9.761
G1 X226.344 Y180.08 E9.80194
G1 X226.601 Y180.722 E9.82494
G1 X227.23 Y182.384 E9.88404
G1 X227.486 Y183.089 E9.90899
G1 X227.767 Y183.989 E9.94035
G1 X228.011 Y185.16 E9.98013
G1 X228.285 Y187.071 E10.04434
G1 X228.654 Y189.35 E10.12113
G1 X228.766 Y190.321 E10.15364
G1 X228.789 Y191.379 E10.18884
G1 X228.766 Y192.043 E10.21093
G1 X228.659 Y193.93 E10.2738
G1 X228.604 Y194.687 E10.29904
G1 X228.488 Y195.661 E10.33167
G1 X228.238 Y196.807 E10.37068
G1 X227.712 Y198.655 E10.43458
G1 X227.126 Y200.878 E10.51105
G1 X226.845 Y201.774 E10.54228
G1 X226.439 Y202.753 E10.57753
G1 X226.177 Y203.292 E10.59746
G1 X225.227 Y205.137 E10.66648
G1 X224.905 Y205.737 E10.68913
G1 X224.424 Y206.545 E10.72041
G1 X223.72 Y207.505 E10.76
G1 X223.062 Y208.306 E10.79448
G1 X222.458 Y209.021 E10.82561
G1 X221.085 Y210.732 E10.89858
G1 X220.489 Y211.411 E10.92863
G1 X219.592 Y212.252 E10.96952
G1 X218.527 Y213.14 E11.01564
G1 X217.115 Y214.259 E11.07557
G1 X216.313 Y214.835 E11.10841
G1 X215.236 Y215.454 E11.14972
G1 X214.328 Y215.908 E11.18349
G1 X213.428 Y216.344 E11.21675
G1 X211.512 Y217.329 E11.2884
G1 X210.639 Y217.728 E11.32033
G1 X209.507 Y218.119 E11.36016
G1 X208.204 Y218.486 E11.40519
G1 X206.462 Y218.935 E11.46502
G1 X205.539 Y219.128 E11.49638
G1 X204.249 Y219.265 E11.53953
G1 X203.377 Y219.304 E11.56856
G0 F6000 X204.231 Y218.865
G1 F1200 X203.365 Y218.904 E11.59739
G1 X202.338 Y218.935 E11.63157
G1 X200.019 Y219.066 E11.70882
G1 X199.078 Y219.076 E11.74012
G1 X198.103 Y218.998 E11.77265
G1 X197.44 Y218.907 E11.79491
G1 X195.51 Y218.593 E11.85995
G1 X193.246 Y218.187 E11.93645
G1 X190.689 Y217.774 E12.0226
G1 X188.188 Y217.442 E12.10651
G1 X185.68 Y217.181 E12.19038
G1 X183.167 Y216.991 E12.2742
G1 X180.603 Y216.87 E12.35957
G1 X178.116 Y216.822 E12.44231
G1 X175.565 Y216.847 E12.52716
G1 X173.044 Y216.941 E12.61106
G1 X170.514 Y217.109 E12.6954
G1 X167.989 Y217.347 E12.77975
G1 X165.491 Y217.655 E12.86346
G1 X162.947 Y218.041 E12.94905
G1 X161.741 Y218.246 E12.98973
G1 X160.47 Y218.382 E13.03225
G1 X159.514 Y218.425 E13.06408
G1 X158.494 Y218.458 E13.09802
G1 X156.307 Y218.581 E13.17088
G1 X155.364 Y218.591 E13.20224
G1 X154.258 Y218.495 E13.23917
G1 X152.998 Y218.314 E13.2815
G1 X148.948 Y217.65 E13.41801
G1 X146.449 Y217.316 E13.50186
G1 X143.927 Y217.051 E13.58621
G1 X141.425 Y216.859 E13.66967
G1 X138.882 Y216.736 E13.75435
G1 X136.369 Y216.686 E13.83795
G1 X133.823 Y216.707 E13.92263
G1 X131.317 Y216.799 E14.00603
G1 X128.767 Y216.964 E14.09103
G1 X126.278 Y217.197 E14.17417
G1 X123.749 Y217.506 E14.25891
G1 X121.217 Y217.887 E14.34408
G1 X119.952 Y218.1 E14.38674
G1 X118.696 Y218.233 E14.42875
G1 X117.74 Y218.276 E14.46058
G1 X116.72 Y218.309 E14.49452
G1 X114.533 Y218.432 E14.56738
G1 X113.59 Y218.442 E14.59874
G1 X112.484 Y218.346 E14.63567
G1 X111.237 Y218.167 E14.67757
G1 X110.123 Y217.986 E14.7151
G1 X109.27 Y217.834 E14.74392
G1 X108.35 Y217.627 E14.77529
G1 X107.292 Y217.277 E14.81235
G1 X106.302 Y216.888 E14.84773
G1 X105.495 Y216.559 E14.87672
G1 X103.34 Y215.741 E14.95338
G1 X102.478 Y215.367 E14.98463
G1 X101.574 Y214.873 E15.0189
G1 X101.028 Y214.533 E15.04029
G1 X99.516 Y213.542 E15.10042
G1 X98.81 Y213.064 E15.12878
G1 X98.085 Y212.525 E15.15882
G1 X97.215 Y211.733 E15.19795
G1 X95.856 Y210.334 E15.26283
G1 X94.267 Y208.758 E15.33726
G1 X93.63 Y208.066 E15.36854
G1 X93.017 Y207.262 E15.40217
G1 X92.648 Y206.718 E15.42404
G1 X91.596 Y205.08 E15.48878
G1 X91.222 Y204.479 E15.51233
G1 X90.761 Y203.658 E15.54364
G1 X90.303 Y202.617 E15.58147
G1 X89.991 Y201.788 E15.61093
G1 X89.624 Y200.77 E15.64692
G1 X88.811 Y198.679 E15.72154
G1 X88.521 Y197.824 E15.75157
G1 X88.27 Y196.772 E15.78754
G1 X88.157 Y196.13 E15.80922
G1 X87.895 Y194.431 E15.8664
G1 X87.768 Y193.515 E15.89716
G1 X87.682 Y192.576 E15.92852
G1 X87.689 Y191.452 E15.96591
G1 X87.744 Y190.524 E15.99683
G1 X87.817 Y189.522 E16.03024
G1 X87.923 Y187.322 E16.1035
G1 X88.013 Y186.365 E16.13547
G1 X88.228 Y185.258 E16.17297
G1 X88.493 Y184.197 E16.20935
G1 X89.036 Y182.235 E16.27706
G1 X89.337 Y181.32 E16.30909
G1 X89.874 Y180.129 E16.35255
G1 X90.722 Y178.523 E16.41295
G1 X91.74 Y176.504 E16.48816
G1 X92.182 Y175.717 E16.51818
G1 X92.841 Y174.771 E16.55653
G1 X93.684 Y173.698 E16.60191
G1 X94.335 Y172.902 E16.63611
G1 X94.901 Y172.229 E16.66536
G1 X95.541 Y171.536 E16.69673
G1 X96.383 Y170.787 E16.73422
G1 X97.183 Y170.15 E16.76823
G1 X97.864 Y169.622 E16.79689
G1 X99.636 Y168.177 E16.87294
G1 X100.36 Y167.637 E16.90298
G1 X101.372 Y167.029 E16.94225
G1 X102.537 Y166.417 E16.98602
G1 X104.156 Y165.612 E17.04615
G1 X104.982 Y165.246 E17.0762
G1 X106.196 Y164.851 E17.11866
G1 X108.123 Y164.363 E17.18478
G1 X110.244 Y163.784 E17.2579
G1 X111.161 Y163.578 E17.28916
G1 X112.193 Y163.446 E17.32377
G1 X112.838 Y163.399 E17.34528
G1 X114.649 Y163.311 E17.40558
G1 X115.483 Y163.283 E17.43334
G1 X116.425 Y163.295 E17.46467
G1 X117.537 Y163.417 E17.50188
G1 X118.58 Y163.589 E17.53704
G1 X119.592 Y163.77 E17.57123
G1 X123.499 Y164.365 E17.70268
G1 X126.011 Y164.692 E17.78693
G1 X128.524 Y164.947 E17.87094
G1 X131.036 Y165.13 E17.95471
G1 X133.566 Y165.243 E18.03895
G1 X136.122 Y165.286 E18.12397
G1 X138.599 Y165.256 E18.20636
G1 X141.176 Y165.152 E18.29214
G1 X143.679 Y164.981 E18.37559
G1 X146.182 Y164.738 E18.45923
G1 X148.702 Y164.421 E18.5437
G1 X151.215 Y164.033 E18.62828
G1 X152.98 Y163.72 E18.6879
G1 X154.008 Y163.591 E18.72236
G1 X154.612 Y163.548 E18.7425
G1 X156.604 Y163.453 E18.80883
G1 X157.297 Y163.432 E18.83189
G1 X158.239 Y163.446 E18.86322
G1 X159.324 Y163.567 E18.89953
G1 X161.321 Y163.911 E18.96693
G1 X163.505 Y164.247 E19.04043
G1 X164.606 Y164.437 E19.07759
G1 X167.13 Y164.842 E19.16261
G1 X169.637 Y165.171 E19.24671
G1 X172.16 Y165.43 E19.33106
G1 X174.684 Y165.616 E19.41524
G1 X177.212 Y165.732 E19.49941
G1 X179.736 Y165.776 E19.58337
G1 X182.247 Y165.749 E19.66689
G1 X184.776 Y165.649 E19.75107
G1 X187.339 Y165.476 E19.83651
G1 X189.796 Y165.24 E19.91861
G1 X192.356 Y164.921 E20.00441
G1 X194.864 Y164.536 E20.08881
G1 X196.727 Y164.205 E20.15174
G1 X197.765 Y164.074 E20.18654
G1 X198.409 Y164.029 E20.20801
G1 X200.194 Y163.943 E20.26745
G1 X201.014 Y163.915 E20.29474
G1 X201.957 Y163.926 E20.3261
G1 X203.076 Y164.05 E20.36355
G1 X204.086 Y164.217 E20.3976
G1 X205.016 Y164.386 E20.42904
G1 X207.232 Y164.725 E20.5036
G1 X208.151 Y164.909 E20.53477
G1 X209.001 Y165.156 E20.56421
G1 X209.636 Y165.382 E20.58663
G1 X211.542 Y166.122 E20.65463
G1 X212.232 Y166.402 E20.6794
G1 X213.053 Y166.778 E20.70944
G1 X214.063 Y167.367 E20.74832
G1 X214.922 Y167.934 E20.78256
G1 X215.684 Y168.453 E20.81322
G1 X217.539 Y169.646 E20.88658
G1 X218.307 Y170.192 E20.91792
G1 X219.17 Y170.941 E20.95592
G1 X220.106 Y171.851 E20.99934
G1 X220.951 Y172.705 E21.0393
G1 X221.456 Y173.23 E21.06353
G1 X222.078 Y173.938 E21.09488
G1 X222.734 Y174.851 E21.13227
G1 X223.236 Y175.635 E21.16323
G1 X223.817 Y176.571 E21.19987
G1 X225.015 Y178.395 E21.27245
G1 X225.477 Y179.171 E21.30249
G1 X225.973 Y180.229 E21.34136
G1 X226.227 Y180.864 E21.3641
G1 X226.854 Y182.521 E21.42303
G1 X227.104 Y183.209 E21.44738
G1 X227.375 Y184.071 E21.47743
G1 X227.619 Y185.242 E21.51721
G1 X227.89 Y187.135 E21.58082
G1 X228.257 Y189.396 E21.657
G1 X228.366 Y190.33 E21.68828
G1 X228.389 Y191.366 E21.72274
G1 X228.367 Y192.02 E21.74451
G1 X228.26 Y193.901 E21.80717
G1 X228.207 Y194.64 E21.83181
G1 X228.097 Y195.576 E21.86316
G1 X227.853 Y196.697 E21.90132
G1 X227.327 Y198.545 E21.96522
G1 X226.744 Y200.759 E22.04137
G1 X226.475 Y201.621 E22.07141
G1 X226.079 Y202.578 E22.10585
G1 X225.821 Y203.109 E22.12549
G1 X224.874 Y204.948 E22.19429
G1 X224.561 Y205.533 E22.21635
G1 X224.101 Y206.309 E22.24636
G1 X223.411 Y207.251 E22.2852
G1 X222.756 Y208.048 E22.31951
G1 X222.152 Y208.763 E22.35064
G1 X220.784 Y210.468 E22.42334
G1 X220.188 Y211.147 E22.45339
G1 X219.336 Y211.945 E22.49222
G1 X218.278 Y212.827 E22.53803
G1 X216.881 Y213.935 E22.59734
G1 X216.114 Y214.488 E22.62879
G1 X215.057 Y215.096 E22.66934
G1 X214.154 Y215.548 E22.70293
G1 X213.245 Y215.988 E22.73652
G1 X211.346 Y216.965 E22.80755
G1 X210.473 Y217.364 E22.83947
G1 X209.398 Y217.734 E22.87729
G1 X208.104 Y218.099 E22.92201
G1 X206.38 Y218.543 E22.98122
G1 X205.457 Y218.736 E23.01258
G1 X204.231 Y218.865 E23.05358
G0 F6000 X205.415 Y218.338
G1 F1200 X204.213 Y218.465 E23.09378
G1 X203.353 Y218.504 E23.12242
G1 X202.326 Y218.535 E23.15659
G1 X200.014 Y218.666 E23.23361
G1 X199.11 Y218.677 E23.26368
G1 X198.135 Y218.599 E23.29621
G1 X197.504 Y218.512 E23.3174
G1 X195.581 Y218.199 E23.3822
G1 X193.317 Y217.793 E23.4587
G1 X190.742 Y217.377 E23.54546
G1 X188.241 Y217.045 E23.62937
G1 X185.715 Y216.782 E23.71384
G1 X183.186 Y216.591 E23.79819
G1 X180.622 Y216.47 E23.88357
G1 X178.12 Y216.422 E23.9668
G1 X175.55 Y216.447 E24.05228
G1 X173.029 Y216.541 E24.13619
G1 X170.483 Y216.71 E24.22106
G1 X167.94 Y216.95 E24.30601
G1 X165.442 Y217.258 E24.38973
G1 X162.88 Y217.647 E24.47591
G1 X161.698 Y217.848 E24.51579
G1 X160.452 Y217.982 E24.55747
G1 X159.501 Y218.025 E24.58914
G1 X158.481 Y218.058 E24.62308
G1 X156.302 Y218.181 E24.69567
G1 X155.399 Y218.192 E24.7257
G1 X154.293 Y218.096 E24.76263
G1 X153.063 Y217.919 E24.80396
G1 X149.013 Y217.256 E24.94046
