;FLAVOR:Marlin
;TIME:267
;Filament used: 0.161324m
;Layer height: 0.2
;MINX:170.858
;MINY:166.405
;MINZ:0.2
;MAXX:226.83
;MAXY:222.365
;MAXZ:1
;TARGET_MACHINE.NAME:Creality Ender-3
;Generated with Cura_SteamEngine 5.9.0
M140 S50
M105
M190 S50
M104 S200
M105
M109 S200
M82 ;absolute extrusion mode
; Ender 3 Custom Start G-code
G92 E0 ; Reset Extruder
G28 ; Home all axes
G1 Z2.0 F3000 ; Move Z Axis up little to prevent scratching of Heat Bed
G1 X0.1 Y20 Z0.3 F5000.0 ; Move to start position
G1 X0.1 Y200.0 Z0.3 F1500.0 E15 ; Draw the first line
G1 X0.4 Y200.0 Z0.3 F5000.0 ; Move to side a little
G1 X0.4 Y20 Z0.3 F1500.0 E30 ; Draw the second line
G92 E0 ; Reset Extruder
G1 Z2.0 F3000 ; Move Z Axis up little to prevent scratching of Heat Bed
G1 X5 Y20 Z0.3 F5000.0 ; Move over to prevent blob squish
G92 E0
G92 E0
G1 F2700 E-5
;LAYER_COUNT:5
;LAYER:0
M107
G0 F6000 X201.274 Y222.199 Z0.2
;TYPE:SKIRT
G1 F2700 E0
G1 F1200 X200.228 Y222.233 E0.03481
G1 X198.111 Y222.353 E0.10533
G1 X197.098 Y222.365 E0.13903
G1 X196.116 Y222.287 E0.17179
G1 X195.421 Y222.192 E0.19512
G1 X193.655 Y221.906 E0.25463
G1 X192.755 Y221.745 E0.28504
G1 X191.798 Y221.528 E0.31767
G1 X190.729 Y221.174 E0.35513
G1 X189.786 Y220.804 E0.38882
G1 X188.921 Y220.452 E0.41988
G1 X186.763 Y219.632 E0.49666
G1 X185.867 Y219.243 E0.52915
G1 X184.939 Y218.734 E0.56435
G1 X184.365 Y218.376 E0.58685
G1 X182.813 Y217.359 E0.64857
G1 X182.189 Y216.937 E0.67362
G1 X181.419 Y216.363 E0.70557
G1 X180.534 Y215.561 E0.74529
G1 X179.815 Y214.832 E0.77935
G1 X179.208 Y214.198 E0.80854
G1 X177.551 Y212.553 E0.8862
G1 X176.89 Y211.833 E0.91871
G1 X176.282 Y211.036 E0.95205
G1 X175.89 Y210.456 E0.97533
G1 X174.863 Y208.86 E1.03846
G1 X174.464 Y208.221 E1.06351
G1 X173.983 Y207.366 E1.09614
G1 X173.526 Y206.332 E1.13374
G1 X173.153 Y205.342 E1.16893
G1 X172.78 Y204.31 E1.20543
G1 X172.01 Y202.329 E1.27612
G1 X171.7 Y201.403 E1.3086
G1 X171.456 Y200.375 E1.34374
G1 X171.338 Y199.703 E1.36643
G1 X171.047 Y197.818 E1.42987
G1 X170.947 Y197.096 E1.45411
G1 X170.858 Y196.118 E1.48677
G1 X170.865 Y194.961 E1.52526
G1 X170.926 Y193.931 E1.55957
G1 X171 Y192.9 E1.59395
G1 X171.099 Y190.831 E1.66285
G1 X171.196 Y189.818 E1.69669
G1 X171.416 Y188.685 E1.73508
G1 X171.746 Y187.382 E1.77979
G1 X172.234 Y185.627 E1.84037
G1 X172.53 Y184.729 E1.87182
G1 X173.054 Y183.55 E1.91473
G1 X173.522 Y182.645 E1.94862
G1 X173.981 Y181.788 E1.98096
G1 X174.964 Y179.838 E2.05359
G1 X175.406 Y179.05 E2.08364
G1 X176.11 Y178.036 E2.1247
G1 X176.921 Y177.003 E2.16838
G1 X178.173 Y175.489 E2.23372
G1 X178.812 Y174.798 E2.26502
G1 X179.703 Y174.002 E2.30476
G1 X180.345 Y173.489 E2.33209
G1 X181.243 Y172.792 E2.3699
G1 X182.952 Y171.395 E2.44332
G1 X183.676 Y170.855 E2.47336
G1 X184.718 Y170.225 E2.51386
G1 X185.906 Y169.595 E2.55858
G1 X187.049 Y169.02 E2.60114
G1 X187.676 Y168.717 E2.6243
G1 X188.542 Y168.346 E2.65564
G1 X189.659 Y167.989 E2.69464
G1 X191.567 Y167.506 E2.7601
G1 X193.734 Y166.915 E2.83481
G1 X194.689 Y166.702 E2.86735
G1 X195.775 Y166.565 E2.90376
G1 X196.425 Y166.519 E2.92543
G1 X198.391 Y166.426 E2.9909
G1 X199.102 Y166.405 E3.01455
G1 X200.082 Y166.421 E3.04715
G1 X201.204 Y166.547 E3.08471
G1 X202.225 Y166.717 E3.11913
G1 X203.206 Y166.895 E3.15229
G1 X205.31 Y167.218 E3.22309
G1 X206.271 Y167.412 E3.2557
G1 X207.361 Y167.745 E3.29361
G1 X208.6 Y168.198 E3.33748
G1 X209.632 Y168.599 E3.37431
G1 X210.438 Y168.926 E3.40324
G1 X211.259 Y169.302 E3.43327
G1 X212.307 Y169.912 E3.4736
G1 X213.137 Y170.459 E3.50667
G1 X213.914 Y170.989 E3.53795
G1 X215.811 Y172.209 E3.61296
G1 X216.579 Y172.755 E3.64431
G1 X217.478 Y173.533 E3.68385
G1 X218.431 Y174.458 E3.72802
G1 X219.193 Y175.226 E3.76401
G1 X219.793 Y175.849 E3.79277
G1 X220.415 Y176.557 E3.82412
G1 X221.106 Y177.517 E3.86346
G1 X221.65 Y178.367 E3.89702
G1 X222.183 Y179.227 E3.93068
G1 X223.399 Y181.079 E4.00437
G1 X223.861 Y181.855 E4.0344
G1 X224.395 Y182.992 E4.07618
G1 X224.652 Y183.638 E4.09931
G1 X225.229 Y185.157 E4.15335
G1 X225.516 Y185.944 E4.18121
G1 X225.814 Y186.898 E4.21446
G1 X226.042 Y187.99 E4.25156
G1 X226.199 Y189.026 E4.28641
G1 X226.343 Y190.063 E4.32123
G1 X226.695 Y192.233 E4.39435
G1 X226.807 Y193.205 E4.42689
G1 X226.83 Y194.265 E4.46216
G1 X226.807 Y194.932 E4.48435
G1 X226.709 Y196.666 E4.54212
G1 X226.645 Y197.564 E4.57206
G1 X226.53 Y198.539 E4.60472
G1 X226.281 Y199.683 E4.64366
G1 X226.005 Y200.68 E4.67806
G1 X225.713 Y201.688 E4.71297
G1 X225.177 Y203.737 E4.78341
G1 X224.884 Y204.671 E4.81597
G1 X224.464 Y205.673 E4.8521
G1 X224.159 Y206.299 E4.87527
G1 X223.303 Y207.959 E4.93739
G1 X222.954 Y208.612 E4.96201
G1 X222.453 Y209.455 E4.99463
G1 X221.773 Y210.382 E5.03287
G1 X220.523 Y211.879 E5.09773
G1 X219.088 Y213.67 E5.17406
G1 X218.465 Y214.377 E5.2054
G1 X217.61 Y215.178 E5.24437
G1 X217.121 Y215.586 E5.26555
G1 X215.773 Y216.669 E5.32307
G1 X215.076 Y217.211 E5.35243
G1 X214.306 Y217.755 E5.38379
G1 X213.282 Y218.341 E5.42303
G1 X211.571 Y219.181 E5.48643
G1 X209.558 Y220.216 E5.56171
G1 X208.686 Y220.615 E5.59361
G1 X207.562 Y221.004 E5.63317
G1 X206.297 Y221.363 E5.6769
G1 X205.251 Y221.638 E5.71287
G1 X204.398 Y221.849 E5.7421
G1 X203.435 Y222.039 E5.77475
G1 X202.308 Y222.152 E5.81242
G1 X201.274 Y222.199 E5.84685
G0 F6000 X202.29 Y221.752
G1 F1200 X201.261 Y221.799 E5.88111
G1 X200.215 Y221.833 E5.91591
G1 X198.088 Y221.954 E5.98677
G1 X197.13 Y221.966 E6.01864
G1 X196.148 Y221.888 E6.0514
G1 X195.485 Y221.797 E6.07366
G1 X193.725 Y221.512 E6.13296
G1 X192.843 Y221.355 E6.16276
G1 X191.924 Y221.148 E6.19409
G1 X190.855 Y220.794 E6.23154
G1 X189.937 Y220.434 E6.26434
G1 X189.063 Y220.078 E6.29573
G1 X186.922 Y219.265 E6.3719
G1 X186.059 Y218.892 E6.40317
G1 X185.151 Y218.395 E6.4376
G1 X184.584 Y218.041 E6.45983
G1 X183.037 Y217.027 E6.52135
G1 X182.428 Y216.616 E6.54579
G1 X181.658 Y216.042 E6.57773
G1 X180.819 Y215.28 E6.61543
G1 X180.104 Y214.555 E6.6493
G1 X179.497 Y213.921 E6.67849
G1 X177.845 Y212.282 E6.75589
G1 X177.208 Y211.59 E6.78717
G1 X176.6 Y210.793 E6.82051
G1 X176.226 Y210.24 E6.84272
G1 X175.202 Y208.648 E6.90567
G1 X174.812 Y208.025 E6.93012
G1 X174.349 Y207.204 E6.96147
G1 X173.892 Y206.17 E6.99907
G1 X173.529 Y205.206 E7.03333
G1 X173.153 Y204.165 E7.07014
G1 X172.389 Y202.201 E7.14024
G1 X172.089 Y201.31 E7.1715
G1 X171.85 Y200.305 E7.20586
G1 X171.733 Y199.642 E7.22826
G1 X171.443 Y197.763 E7.29149
G1 X171.345 Y197.059 E7.31513
G1 X171.258 Y196.12 E7.3465
G1 X171.264 Y194.985 E7.38425
G1 X171.325 Y193.96 E7.4184
G1 X171.4 Y192.919 E7.45311
G1 X171.499 Y190.85 E7.52201
G1 X171.589 Y189.894 E7.55395
G1 X171.804 Y188.783 E7.59158
G1 X172.131 Y187.489 E7.63597
G1 X172.614 Y185.752 E7.69594
G1 X172.91 Y184.854 E7.72739
G1 X173.409 Y183.734 E7.76817
G1 X173.875 Y182.834 E7.80188
G1 X174.334 Y181.977 E7.83421
G1 X175.313 Y180.034 E7.90658
G1 X175.755 Y179.246 E7.93663
G1 X176.425 Y178.283 E7.97565
G1 X177.231 Y177.256 E8.01907
G1 X177.981 Y176.339 E8.05847
G1 X178.467 Y175.761 E8.08359
G1 X179.106 Y175.07 E8.11489
G1 X179.953 Y174.314 E8.15265
G1 X180.59 Y173.805 E8.17977
G1 X181.496 Y173.102 E8.21791
G1 X183.191 Y171.716 E8.29073
G1 X183.915 Y171.176 E8.32078
G1 X184.905 Y170.578 E8.35924
G1 X186.086 Y169.952 E8.4037
G1 X187.223 Y169.38 E8.44603
G1 X187.834 Y169.085 E8.4686
G1 X188.7 Y168.714 E8.49994
G1 X189.76 Y168.376 E8.53694
G1 X190.616 Y168.153 E8.56636
G1 X191.672 Y167.892 E8.60254
G1 X193.822 Y167.305 E8.67667
G1 X194.739 Y167.099 E8.70793
G1 X195.803 Y166.964 E8.7436
G1 X196.444 Y166.919 E8.76497
G1 X198.403 Y166.826 E8.8302
G1 X199.096 Y166.805 E8.85326
G1 X200.038 Y166.819 E8.8846
G1 X201.138 Y166.942 E8.92141
G1 X202.154 Y167.111 E8.95567
G1 X203.135 Y167.288 E8.98882
G1 X205.231 Y167.61 E9.05935
G1 X206.154 Y167.795 E9.09066
G1 X207.224 Y168.121 E9.12787
G1 X208.455 Y168.571 E9.17146
G1 X209.482 Y168.97 E9.2081
G1 X210.271 Y169.29 E9.23642
G1 X211.092 Y169.666 E9.26646
G1 X212.087 Y170.246 E9.30476
G1 X212.912 Y170.789 E9.33761
G1 X213.698 Y171.325 E9.36926
G1 X215.579 Y172.535 E9.44364
G1 X216.347 Y173.081 E9.47499
G1 X217.199 Y173.82 E9.5125
G1 X218.147 Y174.74 E9.55643
G1 X218.905 Y175.504 E9.59223
G1 X219.492 Y176.113 E9.62036
G1 X220.114 Y176.821 E9.65171
G1 X220.769 Y177.733 E9.68905
G1 X221.31 Y178.578 E9.72243
G1 X221.849 Y179.447 E9.75644
G1 X223.055 Y181.284 E9.82953
G1 X223.517 Y182.06 E9.85956
G1 X224.023 Y183.14 E9.89923
G1 X224.278 Y183.78 E9.92215
G1 X224.853 Y185.294 E9.97601
G1 X225.134 Y186.064 E10.00327
G1 X225.422 Y186.98 E10.03521
G1 X225.65 Y188.072 E10.07231
G1 X225.803 Y189.081 E10.10626
G1 X225.948 Y190.127 E10.14138
G1 X226.298 Y192.279 E10.2139
G1 X226.407 Y193.214 E10.2452
G1 X226.43 Y194.252 E10.27974
G1 X226.408 Y194.909 E10.3016
G1 X226.31 Y196.638 E10.3592
G1 X226.248 Y197.518 E10.38854
G1 X226.139 Y198.454 E10.41988
G1 X225.895 Y199.577 E10.45811
G1 X225.621 Y200.569 E10.49234
G1 X225.329 Y201.577 E10.52724
G1 X224.795 Y203.618 E10.59741
G1 X224.515 Y204.516 E10.62869
G1 X224.095 Y205.518 E10.66483
G1 X223.803 Y206.116 E10.68696
G1 X222.95 Y207.771 E10.74889
G1 X222.61 Y208.408 E10.77291
G1 X222.13 Y209.218 E10.80422
G1 X221.45 Y210.145 E10.84246
G1 X220.216 Y211.623 E10.9065
G1 X218.787 Y213.406 E10.9825
G1 X218.191 Y214.085 E11.01255
G1 X217.353 Y214.871 E11.05076
G1 X216.871 Y215.274 E11.07166
G1 X215.527 Y216.353 E11.12898
G1 X214.845 Y216.884 E11.15773
G1 X214.075 Y217.428 E11.18909
G1 X213.103 Y217.983 E11.22632
G1 X212.374 Y218.348 E11.25343
G1 X211.388 Y218.825 E11.28986
G1 X209.392 Y219.852 E11.36452
G1 X208.52 Y220.251 E11.39642
G1 X207.453 Y220.619 E11.43396
G1 X206.195 Y220.976 E11.47745
G1 X205.155 Y221.25 E11.51322
G1 X204.32 Y221.457 E11.54183
G1 X203.395 Y221.641 E11.5732
G1 X202.29 Y221.752 E11.61014
G0 F6000 X203.355 Y221.243
G1 F1200 X202.272 Y221.352 E11.64634
G1 X201.248 Y221.399 E11.68044
G1 X200.202 Y221.433 E11.71525
G1 X198.065 Y221.555 E11.78644
G1 X197.162 Y221.567 E11.81648
G1 X196.18 Y221.489 E11.84924
G1 X195.549 Y221.402 E11.87043
G1 X193.795 Y221.118 E11.92952
G1 X192.93 Y220.965 E11.95874
G1 X192.049 Y220.768 E11.98877
G1 X191.001 Y220.422 E12.02547
G1 X190.088 Y220.064 E12.05809
G1 X189.205 Y219.704 E12.08981
G1 X187.08 Y218.898 E12.1654
G1 X186.251 Y218.541 E12.19542
G1 X185.362 Y218.055 E12.22912
G1 X184.803 Y217.707 E12.25102
G1 X183.261 Y216.695 E12.31236
G1 X182.652 Y216.284 E12.3368
G1 X181.927 Y215.746 E12.36683
G1 X181.104 Y214.999 E12.40379
G1 X180.393 Y214.278 E12.43747
G1 X179.786 Y213.644 E12.46667
G1 X178.139 Y212.011 E12.54381
G1 X177.526 Y211.347 E12.57387
G1 X176.918 Y210.55 E12.60721
G1 X176.562 Y210.024 E12.62833
G1 X175.541 Y208.436 E12.69112
G1 X175.16 Y207.828 E12.71499
G1 X174.715 Y207.042 E12.74503
G1 X174.258 Y206.008 E12.78263
G1 X173.905 Y205.07 E12.81596
G1 X173.526 Y204.02 E12.85309
G1 X172.768 Y202.073 E12.92258
G1 X172.478 Y201.217 E12.95264
G1 X172.244 Y200.235 E12.98622
G1 X172.128 Y199.581 E13.00831
G1 X171.839 Y197.708 E13.07135
G1 X171.743 Y197.021 E13.09442
G1 X171.658 Y196.122 E13.12445
G1 X171.663 Y195.009 E13.16147
G1 X171.724 Y193.989 E13.19546
G1 X171.8 Y192.938 E13.2305
G1 X171.899 Y190.869 E13.2994
G1 X171.982 Y189.97 E13.32943
G1 X172.192 Y188.881 E13.36631
G1 X172.516 Y187.596 E13.41039
G1 X172.994 Y185.876 E13.46977
G1 X173.275 Y185.017 E13.49983
G1 X173.764 Y183.918 E13.53983
G1 X174.228 Y183.023 E13.57336
G1 X174.687 Y182.166 E13.6057
G1 X175.662 Y180.23 E13.6778
G1 X176.104 Y179.442 E13.70785
G1 X176.74 Y178.53 E13.74483
G1 X177.541 Y177.509 E13.78799
G1 X178.287 Y176.596 E13.8272
G1 X178.761 Y176.032 E13.85171
G1 X179.373 Y175.368 E13.88174
G1 X180.203 Y174.626 E13.91877
G1 X180.835 Y174.121 E13.94568
G1 X181.749 Y173.412 E13.98415
G1 X183.43 Y172.037 E14.05638
G1 X184.154 Y171.497 E14.08642
G1 X185.092 Y170.931 E14.12286
G1 X186.266 Y170.309 E14.16705
G1 X187.397 Y169.74 E14.20916
G1 X187.992 Y169.452 E14.23115
G1 X188.822 Y169.095 E14.2612
G1 X189.861 Y168.763 E14.29748
G1 X190.712 Y168.541 E14.32673
G1 X191.778 Y168.278 E14.36325
G1 X193.91 Y167.695 E14.43676
G1 X194.79 Y167.496 E14.46677
G1 X195.831 Y167.363 E14.50167
G1 X196.463 Y167.319 E14.52274
G1 X198.415 Y167.226 E14.58774
G1 X199.091 Y167.205 E14.61024
G1 X199.994 Y167.217 E14.64027
G1 X201.072 Y167.337 E14.67635
G1 X202.083 Y167.505 E14.71044
G1 X203.064 Y167.681 E14.74359
G1 X205.153 Y168.002 E14.81388
G1 X206.038 Y168.178 E14.84389
G1 X207.087 Y168.497 E14.88036
G1 X208.31 Y168.944 E14.92367
G1 X209.332 Y169.341 E14.96014
G1 X210.104 Y169.654 E14.98784
G1 X210.925 Y170.03 E15.01788
G1 X211.867 Y170.58 E15.05416
G1 X212.687 Y171.12 E15.08681
G1 X213.473 Y171.655 E15.11844
G1 X215.348 Y172.861 E15.19259
G1 X216.085 Y173.383 E15.22262
G1 X216.92 Y174.107 E15.25938
G1 X217.863 Y175.022 E15.30308
G1 X218.617 Y175.782 E15.33869
G1 X219.192 Y176.378 E15.36624
G1 X219.789 Y177.055 E15.39626
G1 X220.432 Y177.949 E15.43288
G1 X220.97 Y178.789 E15.46606
G1 X221.515 Y179.667 E15.50043
G1 X222.711 Y181.489 E15.57292
G1 X223.173 Y182.265 E15.60296
G1 X223.651 Y183.288 E15.64052
G1 X223.904 Y183.922 E15.66322
G1 X224.477 Y185.431 E15.71691
G1 X224.758 Y186.201 E15.74417
G1 X225.03 Y187.062 E15.7742
G1 X225.258 Y188.154 E15.8113
G1 X225.407 Y189.136 E15.84434
G1 X225.553 Y190.191 E15.87976
G1 X225.901 Y192.326 E15.95171
G1 X226.007 Y193.223 E15.98175
G1 X226.03 Y194.239 E16.01555
G1 X226.009 Y194.886 E16.03708
G1 X225.911 Y196.61 E16.09452
G1 X225.851 Y197.472 E16.12326
G1 X225.748 Y198.369 E16.15329
G1 X225.509 Y199.471 E16.19079
G1 X225.237 Y200.458 E16.22484
G1 X224.945 Y201.466 E16.25975
G1 X224.413 Y203.5 E16.32968
G1 X224.146 Y204.362 E16.35969
G1 X223.736 Y205.342 E16.39502
G1 X223.447 Y205.933 E16.4169
G1 X222.597 Y207.583 E16.47864
G1 X222.266 Y208.205 E16.50207
G1 X221.807 Y208.982 E16.53209
G1 X221.141 Y209.891 E16.56957
G1 X220.527 Y210.636 E16.60168
G1 X219.904 Y211.373 E16.63377
G1 X218.486 Y213.142 E16.70918
G1 X217.89 Y213.821 E16.73923
G1 X217.097 Y214.564 E16.77537
G1 X216.62 Y214.962 E16.79603
G1 X215.281 Y216.038 E16.85317
G1 X214.614 Y216.558 E16.8813
G1 X213.877 Y217.081 E16.91136
G1 X212.924 Y217.625 E16.94785
G1 X212.2 Y217.988 E16.97479
G1 X211.205 Y218.469 E17.01155
G1 X209.209 Y219.496 E17.08621
G1 X208.389 Y219.873 E17.11623
G1 X207.344 Y220.234 E17.153
G1 X206.093 Y220.589 E17.19625
G1 X205.059 Y220.862 E17.23182
G1 X204.241 Y221.065 E17.25985
G1 X203.355 Y221.243 E17.28991
G1 F2700 E12.28991
;MESH:first p2 -1(1.1mm).stl
G0 F6000 X193.681 Y201.772
G0 X190.944 Y198.328
;TYPE:WALL-INNER
G1 F2700 E17.28991
G1 F1200 X190.837 Y198.11 E17.29798
G1 X190.552 Y197.421 E17.32278
G1 X190.359 Y196.864 E17.34239
G1 X190.345 Y196.766 E17.34568
G1 X190.231 Y196.324 E17.36087
G1 X190.159 Y195.964 E17.37308
G1 X190.09 Y195.52 E17.38802
G1 X190.029 Y194.807 E17.41182
G1 X190.02 Y194.399 E17.4254
G1 X190.028 Y194.007 E17.43844
G1 X190.091 Y193.275 E17.46287
G1 X190.155 Y192.872 E17.47644
G1 X190.23 Y192.492 E17.48933
G1 X190.327 Y192.109 E17.50247
G1 X190.429 Y191.76 E17.51456
G1 X190.555 Y191.381 E17.52785
G1 X190.691 Y191.028 E17.54043
G1 X190.845 Y190.682 E17.55302
G1 X191.018 Y190.334 E17.56595
G1 X191.192 Y190.018 E17.57795
G1 X191.617 Y189.347 E17.60437
G1 X191.843 Y189.039 E17.61707
G1 X192.316 Y188.476 E17.64153
G1 X192.61 Y188.168 E17.65569
G1 X192.877 Y187.911 E17.66802
G1 X193.177 Y187.651 E17.68122
G1 X193.475 Y187.413 E17.6939
G1 X193.779 Y187.189 E17.70646
G1 X194.435 Y186.775 E17.73226
G1 X195.119 Y186.422 E17.75787
G1 X195.46 Y186.273 E17.77024
G1 X195.814 Y186.134 E17.78289
G1 X196.385 Y185.942 E17.80293
G1 X196.459 Y185.934 E17.8054
