;FLAVOR:Marlin
;TIME:202
;Filament used: 0.0894877m
;Layer height: 0.2
;MINX:183.062
;MINY:172.905
;MINZ:0.2
;MAXX:227.018
;MAXY:216.861
;MAXZ:1
;TARGET_MACHINE.NAME:Creality Ender-3
;Generated with Cura_SteamEngine 5.9.0
M140 S50
M105
M190 S50
M104 S200
M105
M109 S200
M82 ;absolute extrusion mode
; Ender 3 Custom Start G-code
G92 E0 ; Reset Extruder
G28 ; Home all axes
G1 Z2.0 F3000 ; Move Z Axis up little to prevent scratching of Heat Bed
G1 X0.1 Y20 Z0.3 F5000.0 ; Move to start position
G1 X0.1 Y200.0 Z0.3 F1500.0 E15 ; Draw the first line
G1 X0.4 Y200.0 Z0.3 F5000.0 ; Move to side a little
G1 X0.4 Y20 Z0.3 F1500.0 E30 ; Draw the second line
G92 E0 ; Reset Extruder
G1 Z2.0 F3000 ; Move Z Axis up little to prevent scratching of Heat Bed
G1 X5 Y20 Z0.3 F5000.0 ; Move over to prevent blob squish
G92 E0
G92 E0
G1 F2700 E-5
;LAYER_COUNT:5
;LAYER:0
M107
G0 F6000 X208.019 Y216.669 Z0.2
;TYPE:SKIRT
G1 F2700 E0
G1 F1200 X207.474 Y216.731 E0.01824
G1 X206.448 Y216.822 E0.0525
G1 X205.555 Y216.861 E0.08223
G1 X204.52 Y216.861 E0.11666
G1 X203.596 Y216.819 E0.14742
G1 X202.429 Y216.713 E0.18639
G1 X201.645 Y216.611 E0.21269
G1 X201.118 Y216.521 E0.23047
G1 X200.178 Y216.328 E0.26239
G1 X199.72 Y216.22 E0.27804
G1 X198.802 Y215.97 E0.30968
G1 X197.919 Y215.689 E0.3405
G1 X197.435 Y215.516 E0.3576
G1 X196.541 Y215.166 E0.38953
G1 X195.82 Y214.846 E0.41577
G1 X195.336 Y214.61 E0.43368
G1 X194.403 Y214.122 E0.4687
G1 X193.767 Y213.762 E0.49301
G1 X193.225 Y213.429 E0.51416
G1 X192.728 Y213.106 E0.53388
G1 X191.995 Y212.587 E0.56375
G1 X191.578 Y212.273 E0.58111
G1 X190.827 Y211.664 E0.61327
G1 X190.294 Y211.197 E0.63684
G1 X189.848 Y210.774 E0.65728
G1 X189.016 Y209.936 E0.69656
G1 X188.441 Y209.311 E0.72481
G1 X187.842 Y208.589 E0.75601
G1 X187.257 Y207.821 E0.78812
G1 X186.729 Y207.063 E0.81884
G1 X186.442 Y206.619 E0.83643
G1 X186.031 Y205.939 E0.86286
G1 X185.737 Y205.407 E0.88307
G1 X185.238 Y204.437 E0.91935
G1 X184.88 Y203.669 E0.94754
G1 X184.521 Y202.796 E0.97893
G1 X184.345 Y202.324 E0.99569
G1 X184.09 Y201.566 E1.02229
G1 X183.948 Y201.079 E1.03916
G1 X183.681 Y200.081 E1.07352
G1 X183.478 Y199.169 E1.10459
G1 X183.305 Y198.186 E1.13779
G1 X183.19 Y197.306 E1.16731
G1 X183.101 Y196.288 E1.2013
G1 X183.062 Y195.4 E1.23086
G1 X183.062 Y194.365 E1.26529
G1 X183.101 Y193.468 E1.29515
G1 X183.191 Y192.445 E1.3293
G1 X183.311 Y191.548 E1.3594
G1 X183.485 Y190.565 E1.39261
G1 X183.7 Y189.605 E1.42533
G1 X183.998 Y188.516 E1.46288
G1 X184.218 Y187.808 E1.48754
G1 X184.542 Y186.936 E1.51848
G1 X184.952 Y185.952 E1.55393
G1 X185.365 Y185.075 E1.58618
G1 X185.885 Y184.092 E1.62316
G1 X186.277 Y183.412 E1.64927
G1 X186.811 Y182.581 E1.68212
G1 X187.342 Y181.831 E1.71269
G1 X187.933 Y181.064 E1.74489
G1 X188.258 Y180.671 E1.76185
G1 X188.885 Y179.962 E1.79333
G1 X189.581 Y179.242 E1.82664
G1 X190.099 Y178.749 E1.85043
G1 X190.54 Y178.361 E1.86996
G1 X191.449 Y177.602 E1.90935
G1 X192.079 Y177.116 E1.93581
G1 X192.882 Y176.558 E1.96834
G1 X193.685 Y176.051 E1.99992
G1 X194.148 Y175.779 E2.01778
G1 X194.749 Y175.449 E2.04059
G1 X195.303 Y175.172 E2.06119
G1 X196.237 Y174.739 E2.09543
G1 X197.122 Y174.377 E2.12723
G1 X198.178 Y173.997 E2.16456
G1 X198.97 Y173.746 E2.19219
G1 X199.884 Y173.504 E2.22364
G1 X200.783 Y173.307 E2.25425
G1 X201.333 Y173.206 E2.27285
G1 X202.265 Y173.067 E2.30419
G1 X203.014 Y172.987 E2.32924
G1 X203.558 Y172.949 E2.34738
G1 X204.602 Y172.905 E2.38214
G1 X205.572 Y172.907 E2.4144
G1 X206.726 Y172.963 E2.45283
G1 X207.494 Y173.029 E2.47846
G1 X208.455 Y173.16 E2.51072
G1 X208.954 Y173.244 E2.52755
G1 X209.909 Y173.44 E2.55998
G1 X210.844 Y173.672 E2.59202
G1 X211.582 Y173.889 E2.6176
G1 X212.145 Y174.08 E2.63738
G1 X213.199 Y174.467 E2.67472
G1 X213.957 Y174.782 E2.70202
G1 X214.869 Y175.211 E2.73555
G1 X215.681 Y175.639 E2.76607
G1 X216.436 Y176.084 E2.79522
G1 X217.408 Y176.707 E2.83362
G1 X218.081 Y177.178 E2.86094
G1 X218.807 Y177.745 E2.89158
G1 X219.694 Y178.495 E2.93022
G1 X220.293 Y179.042 E2.9572
G1 X220.653 Y179.397 E2.97401
G1 X221.155 Y179.921 E2.99815
G1 X221.559 Y180.376 E3.01839
G1 X222.213 Y181.158 E3.05229
G1 X222.797 Y181.923 E3.0843
G1 X223.451 Y182.868 E3.12253
G1 X223.89 Y183.556 E3.14967
G1 X224.133 Y183.971 E3.16567
G1 X224.604 Y184.843 E3.19863
G1 X224.949 Y185.547 E3.22471
G1 X225.164 Y186.034 E3.24241
G1 X225.604 Y187.127 E3.2816
G1 X225.92 Y188.002 E3.31254
G1 X226.177 Y188.814 E3.34087
G1 X226.419 Y189.729 E3.37235
G1 X226.614 Y190.617 E3.40259
G1 X226.716 Y191.171 E3.42132
G1 X226.855 Y192.101 E3.4526
G1 X226.936 Y192.859 E3.47795
G1 X226.974 Y193.397 E3.49589
G1 X227.018 Y194.435 E3.53045
G1 X227.017 Y195.403 E3.56264
G1 X226.962 Y196.551 E3.60087
G1 X226.898 Y197.306 E3.62607
G1 X226.761 Y198.32 E3.6601
G1 X226.592 Y199.249 E3.69151
G1 X226.381 Y200.186 E3.72345
G1 X226.256 Y200.669 E3.74005
G1 X226.041 Y201.404 E3.76552
G1 X225.855 Y201.948 E3.78464
G1 X225.446 Y203.061 E3.82408
G1 X225.133 Y203.82 E3.85139
G1 X224.723 Y204.691 E3.88341
G1 X224.291 Y205.513 E3.91429
G1 X224.021 Y205.987 E3.93243
G1 X223.56 Y206.74 E3.9618
G1 X222.992 Y207.585 E3.99566
G1 X222.547 Y208.19 E4.02064
G1 X222.203 Y208.621 E4.03899
G1 X221.513 Y209.443 E4.07468
G1 X220.973 Y210.036 E4.10136
G1 X220.202 Y210.81 E4.13769
G1 X219.454 Y211.491 E4.17134
G1 X218.742 Y212.084 E4.20216
G1 X218.342 Y212.394 E4.21899
G1 X217.775 Y212.81 E4.24238
G1 X217.285 Y213.143 E4.26208
G1 X216.436 Y213.683 E4.29555
G1 X215.613 Y214.157 E4.32714
G1 X214.739 Y214.611 E4.35989
G1 X213.872 Y215.012 E4.39166
G1 X212.786 Y215.458 E4.43071
G1 X211.995 Y215.746 E4.45871
G1 X211.111 Y216.02 E4.48949
G1 X210.199 Y216.261 E4.52087
G1 X209.3 Y216.458 E4.55148
G1 X208.754 Y216.557 E4.56993
G1 X208.019 Y216.669 E4.59466
G0 F6000 X208.694 Y216.162
G1 F1200 X207.974 Y216.272 E4.61889
G1 X207.439 Y216.333 E4.6368
G1 X206.431 Y216.422 E4.67045
G1 X205.538 Y216.461 E4.70018
G1 X204.538 Y216.461 E4.73344
G1 X203.614 Y216.419 E4.76421
G1 X202.481 Y216.316 E4.80205
G1 X201.697 Y216.214 E4.82834
G1 X201.198 Y216.129 E4.84518
G1 X200.27 Y215.939 E4.87668
G1 X199.825 Y215.834 E4.89189
G1 X198.923 Y215.589 E4.92298
G1 X198.053 Y215.312 E4.95335
G1 X197.581 Y215.144 E4.97001
G1 X196.703 Y214.8 E5.00137
G1 X195.996 Y214.487 E5.02709
G1 X195.521 Y214.255 E5.04467
G1 X194.6 Y213.774 E5.07923
G1 X193.976 Y213.421 E5.10308
G1 X193.443 Y213.094 E5.12387
G1 X192.959 Y212.779 E5.14308
G1 X192.236 Y212.268 E5.17253
G1 X191.83 Y211.962 E5.18944
G1 X191.091 Y211.363 E5.22108
G1 X190.558 Y210.896 E5.24465
G1 X190.132 Y210.492 E5.26417
G1 X189.31 Y209.665 E5.30296
G1 X188.749 Y209.055 E5.33052
G1 X188.16 Y208.346 E5.36118
G1 X187.585 Y207.592 E5.39272
G1 X187.065 Y206.845 E5.42299
G1 X186.784 Y206.412 E5.44016
G1 X186.381 Y205.745 E5.46608
G1 X186.093 Y205.224 E5.48588
G1 X185.594 Y204.254 E5.52216
G1 X185.25 Y203.517 E5.54921
G1 X184.896 Y202.656 E5.58017
G1 X184.724 Y202.196 E5.59651
G1 X184.474 Y201.454 E5.62255
G1 X184.334 Y200.976 E5.63911
G1 X184.071 Y199.994 E5.67293
G1 X183.872 Y199.1 E5.70339
G1 X183.702 Y198.134 E5.73601
G1 X183.587 Y197.254 E5.76553
G1 X183.501 Y196.27 E5.79838
G1 X183.462 Y195.382 E5.82795
G1 X183.462 Y194.382 E5.86121
G1 X183.501 Y193.485 E5.89107
G1 X183.588 Y192.498 E5.92402
G1 X183.705 Y191.617 E5.95358
G1 X183.875 Y190.652 E5.98617
G1 X184.086 Y189.71 E6.01828
G1 X184.38 Y188.634 E6.05538
G1 X184.593 Y187.947 E6.0793
G1 X184.911 Y187.09 E6.10971
G1 X185.314 Y186.122 E6.14458
G1 X185.719 Y185.262 E6.1762
G1 X186.231 Y184.292 E6.21268
G1 X186.614 Y183.628 E6.23817
G1 X187.138 Y182.812 E6.27043
G1 X187.659 Y182.075 E6.30045
G1 X188.242 Y181.319 E6.3322
G1 X188.558 Y180.936 E6.34871
G1 X189.173 Y180.24 E6.37961
G1 X189.857 Y179.532 E6.41235
G1 X190.375 Y179.039 E6.43613
G1 X190.796 Y178.668 E6.4548
G1 X191.693 Y177.919 E6.49366
G1 X192.323 Y177.433 E6.52013
G1 X193.095 Y176.896 E6.55141
G1 X193.888 Y176.396 E6.58259
G1 X194.341 Y176.13 E6.60006
G1 X194.942 Y175.8 E6.62286
G1 X195.472 Y175.535 E6.64257
G1 X196.389 Y175.109 E6.6762
G1 X197.257 Y174.753 E6.70741
G1 X198.299 Y174.378 E6.74424
G1 X199.072 Y174.133 E6.77121
G1 X199.97 Y173.895 E6.80211
G1 X200.869 Y173.698 E6.83272
G1 X201.392 Y173.602 E6.8504
G1 X202.308 Y173.465 E6.88121
G1 X203.042 Y173.386 E6.90576
G1 X203.575 Y173.349 E6.92353
G1 X204.601 Y173.305 E6.95769
G1 X205.553 Y173.307 E6.98935
G1 X206.692 Y173.362 E7.02728
G1 X207.46 Y173.428 E7.05292
G1 X208.388 Y173.554 E7.08407
G1 X208.874 Y173.636 E7.10046
G1 X209.813 Y173.828 E7.13234
G1 X210.731 Y174.056 E7.1638
G1 X211.454 Y174.268 E7.18886
G1 X212.007 Y174.455 E7.20827
G1 X213.046 Y174.837 E7.24509
G1 X213.787 Y175.144 E7.27177
G1 X214.683 Y175.565 E7.3047
G1 X215.478 Y175.983 E7.33457
G1 X216.22 Y176.421 E7.36323
G1 X217.179 Y177.035 E7.4011
G1 X217.835 Y177.493 E7.42771
G1 X218.549 Y178.05 E7.45783
G1 X219.424 Y178.79 E7.49595
G1 X220.012 Y179.327 E7.52243
G1 X220.364 Y179.674 E7.53887
G1 X220.856 Y180.187 E7.56251
G1 X221.252 Y180.633 E7.58235
G1 X221.895 Y181.401 E7.61567
G1 X222.468 Y182.151 E7.64706
G1 X223.114 Y183.083 E7.68477
G1 X223.545 Y183.758 E7.71141
G1 X223.781 Y184.161 E7.72694
G1 X224.245 Y185.019 E7.75939
G1 X224.583 Y185.708 E7.78491
G1 X224.793 Y186.184 E7.80222
G1 X225.228 Y187.263 E7.84091
G1 X225.539 Y188.123 E7.87133
G1 X225.79 Y188.916 E7.89899
G1 X226.028 Y189.815 E7.92992
G1 X226.223 Y190.703 E7.96016
G1 X226.32 Y191.23 E7.97798
G1 X226.457 Y192.144 E8.00872
G1 X226.537 Y192.887 E8.03358
G1 X226.574 Y193.414 E8.05115
G1 X226.618 Y194.435 E8.08514
G1 X226.617 Y195.384 E8.1167
G1 X226.563 Y196.517 E8.15443
G1 X226.499 Y197.272 E8.17963
G1 X226.367 Y198.249 E8.21242
G1 X226.202 Y199.161 E8.24325
G1 X225.994 Y200.086 E8.27478
G1 X225.872 Y200.557 E8.29096
G1 X225.662 Y201.275 E8.31585
G1 X225.48 Y201.81 E8.33464
G1 X225.076 Y202.909 E8.37359
G1 X224.771 Y203.65 E8.40024
G1 X224.369 Y204.505 E8.43166
G1 X223.944 Y205.315 E8.46209
G1 X223.68 Y205.778 E8.47981
G1 X223.228 Y206.517 E8.50862
G1 X222.669 Y207.348 E8.54194
G1 X222.234 Y207.941 E8.5664
G1 X221.897 Y208.364 E8.58438
G1 X221.217 Y209.174 E8.61956
G1 X220.69 Y209.754 E8.64562
G1 X219.933 Y210.514 E8.6813
G1 X219.198 Y211.184 E8.71438
G1 X218.497 Y211.768 E8.74473
G1 X218.105 Y212.072 E8.76123
G1 X217.551 Y212.479 E8.78409
G1 X217.07 Y212.805 E8.80342
G1 X216.221 Y213.345 E8.83688
G1 X215.429 Y213.802 E8.8673
G1 X214.571 Y214.248 E8.89946
G1 X213.72 Y214.642 E8.93065
G1 X212.649 Y215.082 E8.96916
G1 X211.877 Y215.364 E8.9965
G1 X211.009 Y215.633 E9.02672
G1 X210.113 Y215.87 E9.05755
G1 X209.214 Y216.067 E9.08816
G1 X208.694 Y216.162 E9.10574
G0 F6000 X208.633 Y215.767
G1 F1200 X207.928 Y215.875 E9.12946
G1 X207.404 Y215.935 E9.147
G1 X206.414 Y216.022 E9.18006
G1 X205.521 Y216.061 E9.20979
G1 X204.556 Y216.061 E9.24188
G1 X203.632 Y216.019 E9.27265
G1 X202.533 Y215.919 E9.30935
G1 X201.749 Y215.817 E9.33565
G1 X201.278 Y215.737 E9.35154
G1 X200.362 Y215.55 E9.38263
G1 X199.93 Y215.448 E9.39739
G1 X199.044 Y215.208 E9.42792
G1 X198.187 Y214.935 E9.45784
G1 X197.727 Y214.772 E9.47407
G1 X196.865 Y214.434 E9.50487
G1 X196.172 Y214.128 E9.53006
G1 X195.706 Y213.9 E9.54732
G1 X194.797 Y213.426 E9.58141
G1 X194.185 Y213.08 E9.6048
G1 X193.661 Y212.759 E9.62524
G1 X193.19 Y212.452 E9.64394
G1 X192.477 Y211.949 E9.67296
G1 X192.082 Y211.651 E9.68942
G1 X191.354 Y211.062 E9.72056
G1 X190.833 Y210.606 E9.74359
G1 X190.416 Y210.21 E9.76272
G1 X189.604 Y209.394 E9.801
G1 X189.057 Y208.799 E9.82789
G1 X188.478 Y208.103 E9.858
G1 X187.913 Y207.363 E9.88896
G1 X187.4 Y206.627 E9.9188
G1 X187.126 Y206.205 E9.93554
G1 X186.731 Y205.552 E9.96092
G1 X186.449 Y205.041 E9.98033
G1 X185.95 Y204.071 E10.01661
G1 X185.62 Y203.365 E10.04254
G1 X185.271 Y202.516 E10.07307
G1 X185.103 Y202.068 E10.08898
G1 X184.858 Y201.341 E10.1145
G1 X184.72 Y200.872 E10.13076
G1 X184.461 Y199.907 E10.16399
G1 X184.266 Y199.031 E10.19384
G1 X184.099 Y198.082 E10.22589
G1 X183.984 Y197.202 E10.2554
G1 X183.901 Y196.252 E10.28712
G1 X183.862 Y195.364 E10.31668
G1 X183.862 Y194.399 E10.34878
G1 X183.901 Y193.502 E10.37864
G1 X183.985 Y192.55 E10.41043
G1 X184.099 Y191.686 E10.43942
G1 X184.265 Y190.739 E10.47139
G1 X184.472 Y189.815 E10.50289
G1 X184.762 Y188.752 E10.53953
G1 X184.968 Y188.086 E10.56272
G1 X185.28 Y187.244 E10.59259
G1 X185.676 Y186.292 E10.62688
G1 X186.073 Y185.449 E10.65787
G1 X186.578 Y184.492 E10.69386
G1 X186.951 Y183.844 E10.71873
G1 X187.465 Y183.043 E10.75039
G1 X187.976 Y182.319 E10.77986
G1 X188.55 Y181.574 E10.81114
G1 X188.858 Y181.201 E10.82723
G1 X189.461 Y180.518 E10.85753
G1 X190.133 Y179.822 E10.88971
G1 X190.64 Y179.339 E10.913
G1 X191.052 Y178.975 E10.93129
G1 X191.937 Y178.236 E10.96963
G1 X192.567 Y177.75 E10.9961
G1 X193.309 Y177.234 E11.02616
G1 X194.09 Y176.741 E11.05688
G1 X194.534 Y176.481 E11.07399
G1 X195.135 Y176.151 E11.09679
G1 X195.641 Y175.898 E11.11561
G1 X196.541 Y175.479 E11.14863
G1 X197.392 Y175.129 E11.17923
G1 X198.42 Y174.759 E11.21557
G1 X199.175 Y174.52 E11.24191
G1 X200.056 Y174.286 E11.27223
G1 X200.955 Y174.089 E11.30284
G1 X201.451 Y173.998 E11.31961
G1 X202.351 Y173.863 E11.34988
G1 X203.07 Y173.785 E11.37394
G1 X203.592 Y173.749 E11.39134
G1 X204.6 Y173.705 E11.4249
G1 X205.534 Y173.707 E11.45596
G1 X206.658 Y173.761 E11.49339
G1 X207.426 Y173.827 E11.51903
G1 X208.321 Y173.948 E11.54907
G1 X208.794 Y174.028 E11.56502
G1 X209.717 Y174.216 E11.59635
G1 X210.619 Y174.44 E11.62726
G1 X211.326 Y174.647 E11.65177
G1 X211.869 Y174.83 E11.67082
G1 X212.893 Y175.207 E11.70712
G1 X213.617 Y175.506 E11.73317
G1 X214.497 Y175.919 E11.7655
G1 X215.275 Y176.328 E11.79474
G1 X216.004 Y176.758 E11.82289
G1 X216.95 Y177.363 E11.86024
G1 X217.589 Y177.808 E11.88613
G1 X218.291 Y178.356 E11.91575
G1 X219.154 Y179.085 E11.95333
G1 X219.731 Y179.612 E11.97932
G1 X220.075 Y179.951 E11.99538
G1 X220.567 Y180.464 E12.01902
G1 X220.945 Y180.89 E12.03797
G1 X221.577 Y181.644 E12.07069
G1 X222.139 Y182.379 E12.10146
G1 X222.777 Y183.298 E12.13867
G1 X223.2 Y183.96 E12.1648
G1 X223.429 Y184.351 E12.17987
G1 X223.886 Y185.195 E12.2118
G1 X224.217 Y185.869 E12.23677
G1 X224.422 Y186.334 E12.25367
G1 X224.852 Y187.399 E12.29187
G1 X225.158 Y188.244 E12.32176
G1 X225.403 Y189.018 E12.34877
G1 X225.637 Y189.901 E12.37915
G1 X225.832 Y190.789 E12.40939
G1 X225.924 Y191.289 E12.4263
G1 X226.059 Y192.187 E12.4565
G1 X226.138 Y192.915 E12.48086
G1 X226.174 Y193.432 E12.49809
G1 X226.218 Y194.435 E12.53148
G1 X226.217 Y195.365 E12.56242
G1 X226.164 Y196.483 E12.59964
G1 X226.1 Y197.238 E12.62484
G1 X225.973 Y198.178 E12.65639
G1 X225.812 Y199.073 E12.68664
G1 X225.607 Y199.986 E12.71776
G1 X225.488 Y200.445 E12.73353
G1 X225.283 Y201.147 E12.75786
G1 X225.105 Y201.672 E12.77629
G1 X224.706 Y202.757 E12.81474
G1 X224.409 Y203.48 E12.84074
G1 X224.015 Y204.319 E12.87157
G1 X223.596 Y205.117 E12.90155
G1 X223.339 Y205.569 E12.91884
G1 X222.896 Y206.294 E12.9471
G1 X222.346 Y207.112 E12.97989
G1 X221.921 Y207.692 E13.0038
G1 X221.591 Y208.107 E13.02144
G1 X220.921 Y208.905 E13.05609
G1 X220.407 Y209.472 E13.08155
G1 X219.663 Y210.219 E13.11661
G1 X218.942 Y210.877 E13.14908
G1 X218.251 Y211.452 E13.17898
G1 X217.868 Y211.75 E13.19512
G1 X217.327 Y212.148 E13.21746
G1 X216.855 Y212.467 E13.2364
G1 X216.006 Y213.007 E13.26987
G1 X215.244 Y213.447 E13.29914
G1 X214.403 Y213.885 E13.33067
G1 X213.568 Y214.272 E13.36128
G1 X212.512 Y214.706 E13.39926
G1 X211.758 Y214.982 E13.42596
G1 X210.907 Y215.246 E13.4556
G1 X210.027 Y215.479 E13.48587
G1 X209.128 Y215.676 E13.51649
G1 X208.633 Y215.767 E13.53322
G1 F2700 E8.53322
