;FLAVOR:Marlin
;TIME:314
;Filament used: 0.187647m
;Layer height: 0.2
;MINX:170.84
;MINY:163.726
;MINZ:0.2
;MAXX:226.812
;MAXY:219.688
;MAXZ:0.8
;TARGET_MACHINE.NAME:Creality Ender-3
;Generated with Cura_SteamEngine 5.9.0
M140 S50
M105
M190 S50
M104 S200
M105
M109 S200
M82 ;absolute extrusion mode
; Ender 3 Custom Start G-code
G92 E0 ; Reset Extruder
G28 ; Home all axes
G1 Z2.0 F3000 ; Move Z Axis up little to prevent scratching of Heat Bed
G1 X0.1 Y20 Z0.3 F5000.0 ; Move to start position
G1 X0.1 Y200.0 Z0.3 F1500.0 E15 ; Draw the first line
G1 X0.4 Y200.0 Z0.3 F5000.0 ; Move to side a little
G1 X0.4 Y20 Z0.3 F1500.0 E30 ; Draw the second line
G92 E0 ; Reset Extruder
G1 Z2.0 F3000 ; Move Z Axis up little to prevent scratching of Heat Bed
G1 X5 Y20 Z0.3 F5000.0 ; Move over to prevent blob squish
G92 E0
G92 E0
G1 F2700 E-5
;LAYER_COUNT:4
;LAYER:0
M107
G0 F6000 X201.297 Y219.519 Z0.2
;TYPE:SKIRT
G1 F2700 E0
G1 F1200 X200.289 Y219.551 E0.03354
G1 X198.108 Y219.676 E0.1062
G1 X197.093 Y219.688 E0.13996
G1 X196.048 Y219.602 E0.17484
G1 X195.32 Y219.501 E0.19928
G1 X193.605 Y219.223 E0.25707
G1 X192.743 Y219.068 E0.2862
G1 X191.786 Y218.851 E0.31884
G1 X190.711 Y218.495 E0.3565
G1 X189.857 Y218.16 E0.38701
G1 X188.867 Y217.757 E0.42256
G1 X186.765 Y216.965 E0.49727
G1 X185.935 Y216.609 E0.52731
G1 X184.899 Y216.042 E0.56659
G1 X184.348 Y215.697 E0.58822
G1 X182.783 Y214.672 E0.65044
G1 X182.178 Y214.263 E0.67473
G1 X181.379 Y213.666 E0.7079
G1 X180.555 Y212.92 E0.74487
G1 X179.833 Y212.192 E0.77897
G1 X179.12 Y211.448 E0.81325
G1 X177.544 Y209.888 E0.887
G1 X176.881 Y209.167 E0.91958
G1 X176.213 Y208.289 E0.95627
G1 X175.883 Y207.799 E0.97592
G1 X174.847 Y206.186 E1.03968
G1 X174.448 Y205.547 E1.06474
G1 X173.967 Y204.692 E1.09737
G1 X173.5 Y203.633 E1.13586
G1 X172.835 Y201.827 E1.19987
G1 X171.993 Y199.662 E1.27714
G1 X171.693 Y198.772 E1.30837
G1 X171.436 Y197.69 E1.34536
G1 X171.32 Y197.03 E1.36765
G1 X171.029 Y195.145 E1.43109
G1 X170.929 Y194.423 E1.45533
G1 X170.84 Y193.445 E1.488
G1 X170.847 Y192.284 E1.52661
G1 X170.908 Y191.254 E1.56093
G1 X170.976 Y190.326 E1.59188
G1 X171.079 Y188.121 E1.6653
G1 X171.175 Y187.114 E1.69894
G1 X171.357 Y186.131 E1.73219
G1 X171.519 Y185.468 E1.75489
G1 X172.034 Y183.575 E1.82014
G1 X172.233 Y182.884 E1.84406
G1 X172.554 Y181.937 E1.87732
G1 X173.022 Y180.9 E1.91516
G1 X173.555 Y179.869 E1.95376
G1 X173.958 Y179.115 E1.98219
G1 X174.945 Y177.157 E2.05512
G1 X175.387 Y176.369 E2.08517
G1 X176.092 Y175.355 E2.12625
G1 X176.882 Y174.35 E2.16877
G1 X177.653 Y173.407 E2.20928
G1 X178.151 Y172.814 E2.23504
G1 X178.79 Y172.123 E2.26634
G1 X179.679 Y171.328 E2.30601
G1 X180.482 Y170.688 E2.34016
G1 X181.285 Y170.064 E2.37398
G1 X182.962 Y168.692 E2.44605
G1 X183.745 Y168.111 E2.47848
G1 X184.593 Y167.593 E2.51153
G1 X185.258 Y167.235 E2.53665
G1 X186.873 Y166.419 E2.59683
G1 X187.645 Y166.045 E2.62536
G1 X188.511 Y165.673 E2.65671
G1 X189.65 Y165.309 E2.69648
G1 X191.555 Y164.827 E2.76184
G1 X193.727 Y164.236 E2.83671
G1 X194.683 Y164.023 E2.86928
G1 X195.754 Y163.888 E2.90519
G1 X196.393 Y163.842 E2.92649
G1 X198.255 Y163.752 E2.9885
G1 X199.019 Y163.726 E3.01392
G1 X200.001 Y163.738 E3.04659
G1 X201.149 Y163.864 E3.085
G1 X203.138 Y164.207 E3.15213
G1 X205.29 Y164.539 E3.22455
G1 X206.254 Y164.733 E3.25726
G1 X207.345 Y165.067 E3.29521
G1 X208.546 Y165.506 E3.33774
G1 X209.608 Y165.918 E3.37562
G1 X210.406 Y166.241 E3.40426
G1 X211.227 Y166.617 E3.43429
G1 X212.281 Y167.229 E3.47483
G1 X213.202 Y167.835 E3.5115
G1 X213.951 Y168.344 E3.54162
G1 X215.769 Y169.513 E3.61351
G1 X216.552 Y170.07 E3.64546
G1 X217.456 Y170.852 E3.68522
G1 X218.451 Y171.821 E3.73142
G1 X219.692 Y173.085 E3.79033
G1 X220.322 Y173.789 E3.82175
G1 X221.079 Y174.827 E3.86448
G1 X221.597 Y175.635 E3.89641
G1 X222.127 Y176.491 E3.92989
G1 X223.354 Y178.36 E4.00425
G1 X223.833 Y179.17 E4.03555
G1 X224.342 Y180.257 E4.07547
G1 X224.806 Y181.415 E4.11697
G1 X225.278 Y182.664 E4.16138
G1 X225.523 Y183.347 E4.18551
G1 X225.81 Y184.284 E4.2181
G1 X226.035 Y185.381 E4.25535
G1 X226.321 Y187.362 E4.32192
G1 X226.676 Y189.545 E4.39548
G1 X226.788 Y190.517 E4.42802
G1 X226.812 Y191.581 E4.46342
G1 X226.789 Y192.247 E4.48559
G1 X226.677 Y194.217 E4.55121
G1 X226.624 Y194.92 E4.57466
G1 X226.506 Y195.893 E4.60726
G1 X226.267 Y196.982 E4.64434
G1 X226.008 Y197.921 E4.67674
G1 X225.751 Y198.804 E4.70733
G1 X225.157 Y201.067 E4.78515
G1 X224.863 Y202 E4.81768
G1 X224.446 Y202.996 E4.8536
G1 X224.164 Y203.576 E4.87505
G1 X223.35 Y205.159 E4.93425
G1 X222.933 Y205.941 E4.96373
G1 X222.452 Y206.75 E4.99503
G1 X221.746 Y207.713 E5.03475
G1 X221.142 Y208.448 E5.06639
G1 X220.469 Y209.246 E5.10111
G1 X219.068 Y210.99 E5.17551
G1 X218.422 Y211.723 E5.20801
G1 X217.672 Y212.43 E5.24229
G1 X217.206 Y212.822 E5.26254
G1 X215.662 Y214.062 E5.32841
G1 X215.071 Y214.523 E5.35334
G1 X214.302 Y215.067 E5.38467
G1 X213.264 Y215.661 E5.42444
G1 X212.348 Y216.119 E5.45851
G1 X211.463 Y216.548 E5.49122
G1 X209.514 Y217.554 E5.56417
G1 X208.627 Y217.961 E5.59663
G1 X207.676 Y218.297 E5.63017
G1 X207.052 Y218.479 E5.65179
G1 X205.295 Y218.944 E5.71224
G1 X204.413 Y219.165 E5.74248
G1 X203.489 Y219.351 E5.77383
G1 X202.281 Y219.475 E5.81422
G1 X201.297 Y219.519 E5.84698
G0 F6000 X202.263 Y219.075
G1 F1200 X201.284 Y219.119 E5.87958
G1 X200.276 Y219.151 E5.91312
G1 X198.085 Y219.277 E5.98611
G1 X197.126 Y219.289 E6.01801
G1 X196.081 Y219.203 E6.05289
G1 X195.384 Y219.106 E6.07629
G1 X193.675 Y218.829 E6.13388
G1 X192.831 Y218.678 E6.16239
G1 X191.912 Y218.471 E6.19373
G1 X190.857 Y218.122 E6.23069
G1 X190.008 Y217.79 E6.26101
G1 X189.008 Y217.383 E6.29692
G1 X186.923 Y216.597 E6.37103
G1 X186.093 Y216.241 E6.40106
G1 X185.111 Y215.703 E6.43831
G1 X184.567 Y215.362 E6.45966
G1 X183.007 Y214.34 E6.52169
G1 X182.417 Y213.942 E6.54536
G1 X181.647 Y213.369 E6.57728
G1 X180.839 Y212.638 E6.61352
G1 X180.122 Y211.915 E6.64739
G1 X179.409 Y211.171 E6.68167
G1 X177.838 Y209.617 E6.75516
G1 X177.199 Y208.925 E6.78649
G1 X176.545 Y208.065 E6.82242
G1 X176.22 Y207.583 E6.84176
G1 X175.186 Y205.974 E6.90537
G1 X174.796 Y205.351 E6.92982
G1 X174.333 Y204.53 E6.96117
G1 X173.875 Y203.493 E6.99887
G1 X173.516 Y202.536 E7.03287
G1 X173.208 Y201.682 E7.06306
G1 X172.372 Y199.534 E7.13973
G1 X172.082 Y198.679 E7.16976
G1 X171.83 Y197.62 E7.20596
G1 X171.715 Y196.969 E7.22795
G1 X171.425 Y195.09 E7.29119
G1 X171.327 Y194.386 E7.31483
G1 X171.24 Y193.447 E7.34619
G1 X171.246 Y192.308 E7.38408
G1 X171.307 Y191.283 E7.41823
G1 X171.376 Y190.345 E7.44951
G1 X171.479 Y188.14 E7.52293
G1 X171.568 Y187.187 E7.55476
G1 X171.746 Y186.226 E7.58727
G1 X171.905 Y185.573 E7.60962
G1 X172.419 Y183.685 E7.6747
G1 X172.612 Y183.012 E7.69799
G1 X172.919 Y182.102 E7.72993
G1 X173.387 Y181.065 E7.76777
G1 X173.908 Y180.058 E7.80548
G1 X174.311 Y179.304 E7.83392
G1 X175.294 Y177.353 E7.90658
G1 X175.736 Y176.565 E7.93663
G1 X176.407 Y175.602 E7.97567
G1 X177.192 Y174.603 E8.01793
G1 X177.959 Y173.664 E8.05825
G1 X178.445 Y173.086 E8.08337
G1 X179.084 Y172.395 E8.11467
G1 X179.928 Y171.641 E8.15232
G1 X180.727 Y171.004 E8.1863
G1 X181.538 Y170.374 E8.22046
G1 X183.201 Y169.013 E8.29193
G1 X183.954 Y168.452 E8.32316
G1 X184.802 Y167.934 E8.35621
G1 X185.438 Y167.592 E8.38023
G1 X187.048 Y166.779 E8.44022
G1 X187.804 Y166.412 E8.46817
G1 X188.633 Y166.054 E8.49821
G1 X189.748 Y165.697 E8.53715
G1 X191.653 Y165.215 E8.6025
G1 X193.815 Y164.626 E8.67703
G1 X194.733 Y164.42 E8.70832
G1 X195.783 Y164.287 E8.74353
G1 X196.412 Y164.242 E8.7645
G1 X198.269 Y164.152 E8.82634
G1 X199.015 Y164.126 E8.85116
G1 X199.957 Y164.136 E8.8825
G1 X201.105 Y164.262 E8.92091
G1 X203.07 Y164.601 E8.98723
G1 X205.212 Y164.931 E9.05931
G1 X206.137 Y165.116 E9.09069
G1 X207.208 Y165.443 E9.12793
G1 X208.401 Y165.879 E9.17018
G1 X209.458 Y166.289 E9.20789
G1 X210.239 Y166.605 E9.23591
G1 X211.06 Y166.981 E9.26594
G1 X212.061 Y167.563 E9.30446
G1 X212.977 Y168.166 E9.34093
G1 X213.735 Y168.681 E9.37141
G1 X215.537 Y169.839 E9.44265
G1 X216.32 Y170.396 E9.47461
G1 X217.177 Y171.139 E9.51234
G1 X218.166 Y172.101 E9.55823
G1 X219.394 Y173.352 E9.61653
G1 X220.024 Y174.056 E9.64795
G1 X220.742 Y175.043 E9.68855
G1 X221.257 Y175.846 E9.72028
G1 X221.788 Y176.702 E9.75378
G1 X223.01 Y178.564 E9.82786
G1 X223.489 Y179.374 E9.85916
G1 X223.971 Y180.406 E9.89704
G1 X224.432 Y181.556 E9.93825
G1 X224.902 Y182.799 E9.98245
G1 X225.141 Y183.465 E10.00598
G1 X225.418 Y184.365 E10.0373
G1 X225.639 Y185.438 E10.07374
G1 X225.926 Y187.426 E10.14055
G1 X226.279 Y189.591 E10.2135
G1 X226.388 Y190.526 E10.24481
G1 X226.412 Y191.568 E10.27948
G1 X226.39 Y192.224 E10.30131
G1 X226.278 Y194.187 E10.36671
G1 X226.227 Y194.872 E10.38955
G1 X226.115 Y195.807 E10.42087
G1 X225.881 Y196.876 E10.45727
G1 X225.624 Y197.809 E10.48946
G1 X225.367 Y198.692 E10.52004
G1 X224.775 Y200.948 E10.59762
G1 X224.494 Y201.846 E10.62892
G1 X224.086 Y202.821 E10.66407
G1 X223.808 Y203.393 E10.68522
G1 X222.997 Y204.971 E10.74423
G1 X222.589 Y205.737 E10.7731
G1 X222.129 Y206.514 E10.80313
G1 X221.437 Y207.459 E10.84209
G1 X220.836 Y208.19 E10.87356
G1 X220.163 Y208.988 E10.90828
G1 X218.768 Y210.726 E10.98241
G1 X218.147 Y211.432 E11.01368
G1 X217.414 Y212.124 E11.04721
G1 X216.956 Y212.51 E11.06713
G1 X215.416 Y213.747 E11.13283
G1 X214.839 Y214.197 E11.15716
G1 X214.103 Y214.72 E11.1872
G1 X213.085 Y215.303 E11.22621
G1 X212.174 Y215.759 E11.2601
G1 X211.289 Y216.188 E11.29281
G1 X209.347 Y217.191 E11.36551
G1 X208.493 Y217.584 E11.39677
G1 X207.564 Y217.913 E11.42955
G1 X206.95 Y218.092 E11.45082
G1 X205.198 Y218.556 E11.5111
G1 X204.333 Y218.773 E11.54077
G1 X203.448 Y218.953 E11.5708
G1 X202.263 Y219.075 E11.61043
G0 F6000 X203.368 Y218.561
G1 F1200 X202.245 Y218.675 E11.64797
G1 X201.271 Y218.719 E11.6804
G1 X200.263 Y218.751 E11.71394
G1 X198.062 Y218.878 E11.78727
G1 X197.159 Y218.89 E11.8173
G1 X196.114 Y218.804 E11.85218
G1 X195.448 Y218.711 E11.87454
G1 X193.745 Y218.435 E11.93193
G1 X192.918 Y218.288 E11.95986
G1 X192.037 Y218.091 E11.98989
G1 X191.002 Y217.749 E12.02614
G1 X190.159 Y217.42 E12.05624
G1 X189.149 Y217.009 E12.09251
G1 X187.081 Y216.229 E12.16602
G1 X186.251 Y215.873 E12.19606
G1 X185.323 Y215.364 E12.23126
G1 X184.786 Y215.028 E12.25233
G1 X183.231 Y214.008 E12.31418
G1 X182.641 Y213.61 E12.33786
G1 X181.915 Y213.072 E12.36791
G1 X181.107 Y212.341 E12.40415
G1 X180.411 Y211.638 E12.43705
G1 X179.698 Y210.894 E12.47133
G1 X178.131 Y209.345 E12.54461
G1 X177.517 Y208.683 E12.57464
G1 X176.877 Y207.841 E12.60982
G1 X176.552 Y207.359 E12.62915
G1 X175.525 Y205.762 E12.69231
G1 X175.144 Y205.154 E12.71617
G1 X174.699 Y204.368 E12.74621
G1 X174.241 Y203.331 E12.78392
G1 X173.892 Y202.401 E12.81696
G1 X173.581 Y201.537 E12.8475
G1 X172.751 Y199.406 E12.92356
G1 X172.461 Y198.551 E12.95359
G1 X172.224 Y197.55 E12.9878
G1 X172.11 Y196.908 E13.00949
G1 X171.821 Y195.035 E13.07252
G1 X171.725 Y194.348 E13.0956
G1 X171.64 Y193.449 E13.12563
G1 X171.645 Y192.332 E13.16278
G1 X171.706 Y191.312 E13.19677
G1 X171.776 Y190.364 E13.22838
G1 X171.879 Y188.159 E13.3018
G1 X171.961 Y187.26 E13.33183
G1 X172.135 Y186.32 E13.36362
G1 X172.291 Y185.678 E13.3856
G1 X172.804 Y183.795 E13.45051
G1 X172.997 Y183.122 E13.4738
G1 X173.284 Y182.266 E13.50382
G1 X173.742 Y181.249 E13.54092
G1 X174.261 Y180.247 E13.57845
G1 X174.664 Y179.493 E13.60689
G1 X175.643 Y177.549 E13.67928
G1 X176.085 Y176.761 E13.70933
G1 X176.722 Y175.849 E13.74633
G1 X177.502 Y174.856 E13.78833
G1 X178.265 Y173.921 E13.82847
G1 X178.739 Y173.357 E13.85297
G1 X179.351 Y172.693 E13.88301
G1 X180.178 Y171.954 E13.9199
G1 X180.972 Y171.32 E13.95369
G1 X181.783 Y170.69 E13.98785
G1 X183.44 Y169.333 E14.05908
G1 X184.163 Y168.793 E14.0891
G1 X185.011 Y168.275 E14.12215
G1 X185.618 Y167.949 E14.14506
G1 X187.223 Y167.139 E14.20486
G1 X187.963 Y166.779 E14.23223
G1 X188.792 Y166.421 E14.26226
G1 X189.846 Y166.085 E14.29906
G1 X191.751 Y165.603 E14.36441
G1 X193.903 Y165.016 E14.4386
G1 X194.784 Y164.817 E14.46865
G1 X195.811 Y164.686 E14.50308
G1 X196.431 Y164.642 E14.52375
G1 X198.283 Y164.552 E14.58542
G1 X199.011 Y164.526 E14.60965
G1 X199.914 Y164.534 E14.63969
G1 X201.039 Y164.657 E14.67733
G1 X202.026 Y164.821 E14.71061
G1 X203 Y164.995 E14.74351
G1 X205.134 Y165.323 E14.81532
G1 X206.02 Y165.499 E14.84537
G1 X207.071 Y165.819 E14.88191
G1 X208.256 Y166.252 E14.92387
G1 X209.308 Y166.66 E14.9614
G1 X210.072 Y166.969 E14.98881
G1 X210.893 Y167.345 E15.01885
G1 X211.841 Y167.897 E15.05533
G1 X212.752 Y168.497 E15.09161
G1 X213.519 Y169.018 E15.12245
G1 X215.321 Y170.176 E15.1937
G1 X216.058 Y170.698 E15.22373
G1 X216.898 Y171.426 E15.2607
G1 X217.881 Y172.381 E15.30629
G1 X219.097 Y173.619 E15.36401
G1 X219.701 Y174.291 E15.39406
G1 X220.405 Y175.259 E15.43387
G1 X220.917 Y176.057 E15.4654
G1 X221.449 Y176.913 E15.49892
G1 X222.666 Y178.768 E15.57271
G1 X223.127 Y179.544 E15.60273
G1 X223.6 Y180.555 E15.63986
G1 X224.058 Y181.698 E15.68081
G1 X224.526 Y182.934 E15.72477
G1 X224.759 Y183.583 E15.74771
G1 X225.026 Y184.446 E15.77775
G1 X225.243 Y185.498 E15.81348
G1 X225.392 Y186.485 E15.84668
G1 X225.531 Y187.491 E15.88046
G1 X225.882 Y189.638 E15.95281
G1 X225.988 Y190.535 E15.98285
G1 X226.012 Y191.555 E16.01679
G1 X225.991 Y192.201 E16.03829
G1 X225.879 Y194.158 E16.10348
G1 X225.83 Y194.825 E16.12573
G1 X225.724 Y195.722 E16.15577
G1 X225.495 Y196.77 E16.19145
G1 X225.24 Y197.697 E16.22343
G1 X224.983 Y198.58 E16.25401
G1 X224.393 Y200.829 E16.33135
G1 X224.125 Y201.692 E16.3614
G1 X223.726 Y202.646 E16.3958
G1 X223.452 Y203.21 E16.41665
G1 X222.644 Y204.783 E16.47547
G1 X222.245 Y205.533 E16.50372
G1 X221.785 Y206.31 E16.53376
G1 X221.128 Y207.205 E16.57068
G1 X220.53 Y207.932 E16.60199
G1 X219.857 Y208.73 E16.63671
G1 X218.467 Y210.462 E16.71058
G1 X217.872 Y211.141 E16.7406
G1 X217.139 Y211.833 E16.77413
G1 X216.705 Y212.198 E16.79299
G1 X215.17 Y213.432 E16.8585
G1 X214.607 Y213.871 E16.88225
G1 X213.871 Y214.394 E16.91228
G1 X212.906 Y214.945 E16.94924
G1 X212 Y215.399 E16.98294
G1 X211.115 Y215.828 E17.01565
G1 X209.179 Y216.828 E17.08813
G1 X208.359 Y217.207 E17.11817
G1 X207.43 Y217.536 E17.15095
G1 X206.847 Y217.705 E17.17114
G1 X205.101 Y218.168 E17.23122
G1 X204.253 Y218.381 E17.2603
G1 X203.368 Y218.561 E17.29034
G1 F2700 E12.29034
;MESH:second -1(0.9mm).stl
G0 F6000 X196.353 Y209.198
G0 X189.619 Y196.606
;TYPE:WALL-INNER
G1 F2700 E17.29034
G1 F1200 X189.741 Y196.841 E17.29914
G1 X189.735 Y197.101 E17.30779
G1 X189.471 Y197.5 E17.32371
G1 X184.931 Y200.424 E17.50332
G1 F1194 X185.148 Y200.761 E17.51671
G1 F1200 X189.687 Y197.836 E17.69631
G1 X190.16 Y197.758 E17.71226
G1 X190.43 Y197.908 E17.72253
G1 X190.738 Y198.296 E17.73901
G1 X191.01 Y198.614 E17.75292
G1 X191.276 Y198.907 E17.76609
G1 X191.558 Y199.192 E17.77942
G1 X191.855 Y199.467 E17.79288
G1 X192.167 Y199.733 E17.80652
G1 X192.606 Y200.085 E17.82524
G1 X192.707 Y200.323 E17.83384
G1 F1203 X192.626 Y200.798 E17.84982
G1 X189.667 Y205.314 E18.02895
G1 F1200 X190.002 Y205.533 E18.04226
G1 F1203 X192.958 Y201.015 E18.22138
G1 X193.359 Y200.752 E18.23729
G1 F1200 X193.617 Y200.749 E18.24588
G1 X194.106 Y201.007 E18.26427
G1 X194.845 Y201.345 E18.29129
G1 X195.235 Y201.496 E18.3052
G1 X195.608 Y201.624 E18.31832
G1 X195.998 Y201.741 E18.33186
G1 X196.46 Y201.863 E18.34776
G1 X196.73 Y202.059 E18.35885
G1 X196.849 Y202.524 E18.37482
G1 X195.985 Y207.855 E18.55444
G1 F1203 X196.379 Y207.919 E18.56768
G1 F1200 X197.243 Y202.588 E18.74731
G1 X197.503 Y202.185 E18.76326
