;FLAVOR:Marlin
;TIME:265
;Filament used: 0.161563m
;Layer height: 0.2
;MINX:172.182
;MINY:162.183
;MINZ:0.2
;MAXX:228.15
;MAXY:218.136
;MAXZ:1.2
;TARGET_MACHINE.NAME:Creality Ender-3
;Generated with Cura_SteamEngine 5.9.0
M140 S50
M105
M190 S50
M104 S200
M105
M109 S200
M82 ;absolute extrusion mode
; Ender 3 Custom Start G-code
G92 E0 ; Reset Extruder
G28 ; Home all axes
G1 Z2.0 F3000 ; Move Z Axis up little to prevent scratching of Heat Bed
G1 X0.1 Y20 Z0.3 F5000.0 ; Move to start position
G1 X0.1 Y200.0 Z0.3 F1500.0 E15 ; Draw the first line
G1 X0.4 Y200.0 Z0.3 F5000.0 ; Move to side a little
G1 X0.4 Y20 Z0.3 F1500.0 E30 ; Draw the second line
G92 E0 ; Reset Extruder
G1 Z2.0 F3000 ; Move Z Axis up little to prevent scratching of Heat Bed
G1 X5 Y20 Z0.3 F5000.0 ; Move over to prevent blob squish
G92 E0
G92 E0
G1 F2700 E-5
;LAYER_COUNT:6
;LAYER:0
M107
G0 F6000 X202.561 Y217.976 Z0.2
;TYPE:SKIRT
G1 F2700 E0
G1 F1200 X201.664 Y218.002 E0.02985
G1 X199.377 Y218.127 E0.10603
G1 X198.364 Y218.136 E0.13972
G1 X197.38 Y218.055 E0.17256
G1 X196.733 Y217.966 E0.19428
G1 X194.772 Y217.645 E0.26037
G1 X194.025 Y217.509 E0.28563
G1 X193.07 Y217.289 E0.31822
G1 X191.983 Y216.926 E0.35634
G1 X191.093 Y216.575 E0.38816
G1 X190.207 Y216.211 E0.42002
G1 X188.037 Y215.384 E0.49725
G1 X187.142 Y214.993 E0.52974
G1 X186.247 Y214.501 E0.56371
G1 X185.701 Y214.159 E0.58514
G1 X184.091 Y213.102 E0.64919
G1 X183.482 Y212.69 E0.67365
G1 X182.711 Y212.116 E0.70562
G1 X181.833 Y211.318 E0.74508
G1 X180.44 Y209.882 E0.81162
G1 X178.836 Y208.285 E0.88691
G1 X178.176 Y207.562 E0.91947
G1 X177.517 Y206.69 E0.95582
G1 X177.148 Y206.141 E0.97782
G1 X176.122 Y204.537 E1.04115
G1 X175.743 Y203.925 E1.06509
G1 X175.301 Y203.137 E1.09514
G1 X174.807 Y202.015 E1.13592
G1 X174.498 Y201.191 E1.16519
G1 X174.148 Y200.212 E1.19977
G1 X173.333 Y198.097 E1.27515
G1 X173.023 Y197.166 E1.30779
G1 X172.776 Y196.092 E1.34445
G1 X172.541 Y194.723 E1.39064
G1 X172.277 Y192.915 E1.45142
G1 X172.182 Y191.935 E1.48416
G1 X172.186 Y190.675 E1.52607
G1 X172.323 Y188.655 E1.59341
G1 X172.427 Y186.521 E1.66447
G1 X172.525 Y185.513 E1.69816
G1 X172.711 Y184.521 E1.73173
G1 X172.877 Y183.843 E1.75494
G1 X173.363 Y182.073 E1.81599
G1 X173.601 Y181.251 E1.84446
G1 X173.905 Y180.36 E1.87577
G1 X174.396 Y179.273 E1.91544
G1 X175.348 Y177.471 E1.98322
G1 X176.338 Y175.515 E2.05614
G1 X176.801 Y174.696 E2.08743
G1 X177.443 Y173.772 E2.12485
G1 X177.807 Y173.308 E2.14447
G1 X178.922 Y171.947 E2.20299
G1 X179.523 Y171.234 E2.234
G1 X180.19 Y170.514 E2.26664
G1 X181.061 Y169.741 E2.30538
G1 X181.891 Y169.082 E2.34063
G1 X182.634 Y168.507 E2.37187
G1 X184.354 Y167.106 E2.44566
G1 X185.078 Y166.567 E2.47568
G1 X186.078 Y165.961 E2.51457
G1 X186.697 Y165.632 E2.53789
G1 X188.346 Y164.806 E2.59923
G1 X189.021 Y164.48 E2.62416
G1 X189.888 Y164.109 E2.65552
G1 X191.026 Y163.746 E2.69525
G1 X191.86 Y163.529 E2.72392
G1 X192.926 Y163.27 E2.7604
G1 X195.061 Y162.692 E2.83397
G1 X195.982 Y162.488 E2.86534
G1 X197.167 Y162.344 E2.90505
G1 X198.541 Y162.255 E2.95084
G1 X200.331 Y162.183 E3.01043
G1 X201.317 Y162.19 E3.04322
G1 X202.537 Y162.321 E3.08403
G1 X203.656 Y162.509 E3.12177
G1 X204.549 Y162.672 E3.15196
G1 X206.676 Y163.002 E3.22356
G1 X207.599 Y163.189 E3.25488
G1 X208.717 Y163.53 E3.29375
G1 X210.054 Y164.023 E3.34115
G1 X211.714 Y164.684 E3.40058
G1 X212.575 Y165.073 E3.432
G1 X213.663 Y165.703 E3.47382
G1 X214.571 Y166.304 E3.51003
G1 X215.365 Y166.844 E3.54197
G1 X217.174 Y168.014 E3.61363
G1 X217.943 Y168.561 E3.64501
G1 X218.842 Y169.343 E3.68464
G1 X219.614 Y170.093 E3.72044
G1 X221.07 Y171.58 E3.78966
G1 X221.735 Y172.33 E3.823
G1 X222.434 Y173.295 E3.86263
G1 X222.983 Y174.153 E3.89651
G1 X223.545 Y175.06 E3.932
G1 X224.751 Y176.91 E4.00545
G1 X225.229 Y177.721 E4.03676
G1 X225.689 Y178.696 E4.07262
G1 X225.936 Y179.308 E4.09457
G1 X226.57 Y180.983 E4.15414
G1 X226.877 Y181.844 E4.18454
G1 X227.157 Y182.763 E4.21649
G1 X227.385 Y183.879 E4.25438
G1 X227.65 Y185.754 E4.31736
G1 X228.018 Y188.038 E4.39431
G1 X228.13 Y189.031 E4.42754
G1 X228.15 Y190.169 E4.4654
G1 X228.122 Y190.828 E4.48734
G1 X228.027 Y192.49 E4.54271
G1 X227.959 Y193.41 E4.57339
G1 X227.841 Y194.384 E4.60602
G1 X227.601 Y195.474 E4.64314
G1 X227.321 Y196.484 E4.678
G1 X227.04 Y197.45 E4.71146
G1 X226.484 Y199.552 E4.78378
G1 X226.183 Y200.502 E4.81693
G1 X225.782 Y201.456 E4.85134
G1 X225.473 Y202.09 E4.8748
G1 X224.672 Y203.644 E4.93295
G1 X224.249 Y204.433 E4.96273
G1 X223.766 Y205.243 E4.99409
G1 X223.058 Y206.206 E5.03385
G1 X221.77 Y207.747 E5.10065
G1 X220.391 Y209.46 E5.17379
G1 X219.731 Y210.205 E5.20689
G1 X218.979 Y210.911 E5.2412
G1 X218.47 Y211.338 E5.2633
G1 X216.99 Y212.524 E5.32638
G1 X216.385 Y212.994 E5.35186
G1 X215.567 Y213.569 E5.38512
G1 X214.588 Y214.126 E5.42258
G1 X213.669 Y214.584 E5.45673
G1 X212.795 Y215.004 E5.48898
G1 X210.83 Y216.012 E5.56243
G1 X210.009 Y216.388 E5.59247
G1 X208.842 Y216.791 E5.63353
G1 X207.565 Y217.151 E5.67766
G1 X206.544 Y217.418 E5.71276
G1 X205.685 Y217.63 E5.74219
G1 X204.721 Y217.819 E5.77486
G1 X203.566 Y217.933 E5.81347
G1 X202.561 Y217.976 E5.84692
G0 F6000 X203.549 Y217.533
G1 F1200 X202.549 Y217.576 E5.88021
G1 X201.652 Y217.602 E5.91006
G1 X199.355 Y217.728 E5.98657
G1 X198.397 Y217.737 E6.01844
G1 X197.413 Y217.656 E6.05128
G1 X196.798 Y217.571 E6.07193
G1 X194.843 Y217.251 E6.13781
G1 X194.114 Y217.119 E6.16246
G1 X193.196 Y216.909 E6.19378
G1 X192.13 Y216.554 E6.23115
G1 X191.245 Y216.205 E6.26279
G1 X190.359 Y215.841 E6.29465
G1 X188.197 Y215.017 E6.3716
G1 X187.335 Y214.642 E6.40287
G1 X186.44 Y214.15 E6.43684
G1 X185.921 Y213.825 E6.4572
G1 X184.315 Y212.77 E6.52111
G1 X183.721 Y212.369 E6.54495
G1 X182.95 Y211.795 E6.57692
G1 X182.102 Y211.022 E6.61508
G1 X180.722 Y209.598 E6.68104
G1 X179.131 Y208.015 E6.75569
G1 X178.495 Y207.321 E6.787
G1 X177.849 Y206.467 E6.82261
G1 X177.485 Y205.925 E6.84433
G1 X176.462 Y204.326 E6.90746
G1 X176.092 Y203.729 E6.93082
G1 X175.65 Y202.941 E6.96087
G1 X175.182 Y201.875 E6.99959
G1 X174.875 Y201.056 E7.02869
G1 X174.525 Y200.077 E7.06327
G1 X173.712 Y197.97 E7.13838
G1 X173.413 Y197.076 E7.16973
G1 X173.166 Y196.002 E7.20639
G1 X172.937 Y194.665 E7.2515
G1 X172.675 Y192.876 E7.31164
G1 X172.582 Y191.936 E7.34306
G1 X172.585 Y190.702 E7.3841
G1 X172.723 Y188.674 E7.45171
G1 X172.827 Y186.54 E7.52277
G1 X172.918 Y185.587 E7.55461
G1 X173.1 Y184.616 E7.58747
G1 X173.263 Y183.949 E7.61031
G1 X173.747 Y182.184 E7.67118
G1 X173.98 Y181.379 E7.69905
G1 X174.27 Y180.524 E7.72908
G1 X174.75 Y179.46 E7.7679
G1 X175.702 Y177.658 E7.83569
G1 X176.687 Y175.711 E7.90826
G1 X177.13 Y174.924 E7.9383
G1 X177.758 Y174.019 E7.97494
G1 X178.122 Y173.555 E7.99455
G1 X179.228 Y172.205 E8.0526
G1 X179.817 Y171.505 E8.08302
G1 X180.456 Y170.813 E8.11435
G1 X181.31 Y170.054 E8.15235
G1 X182.136 Y169.398 E8.18744
G1 X182.887 Y168.817 E8.21902
G1 X184.593 Y167.427 E8.29221
G1 X185.317 Y166.888 E8.32223
G1 X186.266 Y166.314 E8.35912
G1 X186.876 Y165.99 E8.38209
G1 X188.52 Y165.166 E8.44325
G1 X189.178 Y164.848 E8.46756
G1 X190.045 Y164.477 E8.49893
G1 X191.127 Y164.133 E8.53669
G1 X191.955 Y163.918 E8.56514
G1 X193.021 Y163.658 E8.60164
G1 X195.148 Y163.083 E8.67492
G1 X196.069 Y162.879 E8.7063
G1 X197.193 Y162.743 E8.74395
G1 X198.557 Y162.655 E8.78941
G1 X200.329 Y162.583 E8.8484
G1 X201.274 Y162.588 E8.87983
G1 X202.471 Y162.716 E8.91987
G1 X203.584 Y162.902 E8.9574
G1 X204.488 Y163.067 E8.98797
G1 X206.597 Y163.394 E9.05895
G1 X207.482 Y163.572 E9.08897
G1 X208.6 Y163.913 E9.12785
G1 X209.906 Y164.395 E9.17415
G1 X211.549 Y165.049 E9.23297
G1 X212.41 Y165.438 E9.26439
G1 X213.442 Y166.037 E9.30408
G1 X214.346 Y166.635 E9.34013
G1 X215.14 Y167.175 E9.37207
G1 X216.942 Y168.34 E9.44344
G1 X217.711 Y168.887 E9.47482
G1 X218.563 Y169.63 E9.51242
G1 X219.328 Y170.373 E9.54789
G1 X220.771 Y171.846 E9.61648
G1 X221.411 Y172.565 E9.64849
G1 X222.11 Y173.53 E9.68812
G1 X222.643 Y174.364 E9.72104
G1 X223.205 Y175.271 E9.75653
G1 X224.406 Y177.113 E9.82967
G1 X224.884 Y177.924 E9.86098
G1 X225.318 Y178.846 E9.89487
G1 X225.562 Y179.45 E9.91654
G1 X226.193 Y181.118 E9.97585
G1 X226.494 Y181.961 E10.00563
G1 X226.774 Y182.88 E10.03758
G1 X226.989 Y183.938 E10.07349
G1 X227.114 Y184.776 E10.10167
G1 X227.255 Y185.818 E10.13664
G1 X227.623 Y188.102 E10.21359
G1 X227.73 Y189.038 E10.24492
G1 X227.75 Y190.152 E10.28198
G1 X227.723 Y190.805 E10.30372
G1 X227.628 Y192.461 E10.35889
G1 X227.562 Y193.362 E10.38893
G1 X227.45 Y194.298 E10.42029
G1 X227.21 Y195.388 E10.45741
G1 X226.937 Y196.372 E10.49137
G1 X226.656 Y197.338 E10.52483
G1 X226.097 Y199.45 E10.5975
G1 X225.814 Y200.347 E10.62878
G1 X225.413 Y201.301 E10.6632
G1 X225.117 Y201.907 E10.68563
G1 X224.319 Y203.455 E10.74356
G1 X223.905 Y204.228 E10.77272
G1 X223.422 Y205.038 E10.80409
G1 X222.751 Y205.949 E10.84172
G1 X221.463 Y207.49 E10.90852
G1 X220.091 Y209.195 E10.98131
G1 X219.457 Y209.913 E11.01317
G1 X218.705 Y210.619 E11.04748
G1 X218.22 Y211.026 E11.06854
G1 X216.744 Y212.208 E11.13143
G1 X216.154 Y212.667 E11.15629
G1 X215.369 Y213.221 E11.18825
G1 X214.39 Y213.778 E11.22571
G1 X213.496 Y214.223 E11.25892
G1 X212.622 Y214.643 E11.29118
G1 X210.663 Y215.648 E11.36441
G1 X209.842 Y216.024 E11.39444
G1 X208.733 Y216.406 E11.43345
G1 X207.464 Y216.764 E11.47731
G1 X206.448 Y217.03 E11.51224
G1 X205.607 Y217.238 E11.54105
G1 X204.682 Y217.421 E11.57242
G1 X203.549 Y217.533 E11.61028
G0 F6000 X204.643 Y217.023
G1 F1200 X203.532 Y217.133 E11.64742
G1 X202.537 Y217.176 E11.68054
G1 X201.64 Y217.202 E11.71039
G1 X199.333 Y217.329 E11.78723
G1 X198.43 Y217.338 E11.81727
G1 X197.446 Y217.257 E11.85011
G1 X196.863 Y217.176 E11.86969
G1 X194.914 Y216.857 E11.93537
G1 X194.203 Y216.729 E11.9594
G1 X193.322 Y216.529 E11.98945
G1 X192.277 Y216.182 E12.02607
G1 X191.397 Y215.835 E12.05753
G1 X190.501 Y215.467 E12.08975
G1 X188.356 Y214.65 E12.16609
G1 X187.527 Y214.291 E12.19614
G1 X186.652 Y213.811 E12.22933
G1 X186.141 Y213.491 E12.24939
G1 X184.539 Y212.438 E12.31315
G1 X183.945 Y212.037 E12.33699
G1 X183.219 Y211.499 E12.36704
G1 X182.371 Y210.726 E12.40521
G1 X181.004 Y209.314 E12.47057
G1 X179.425 Y207.744 E12.54463
G1 X178.814 Y207.08 E12.57464
G1 X178.168 Y206.226 E12.61026
G1 X177.822 Y205.709 E12.63095
G1 X176.802 Y204.115 E12.69389
G1 X176.441 Y203.533 E12.71667
G1 X175.999 Y202.745 E12.74672
G1 X175.557 Y201.735 E12.78339
G1 X175.252 Y200.921 E12.8123
G1 X174.902 Y199.942 E12.84688
G1 X174.091 Y197.842 E12.92176
G1 X173.803 Y196.986 E12.95179
G1 X173.556 Y195.912 E12.98845
G1 X173.333 Y194.607 E13.03248
G1 X173.073 Y192.836 E13.09202
G1 X172.982 Y191.937 E13.12207
G1 X172.984 Y190.729 E13.16225
G1 X173.123 Y188.693 E13.23012
G1 X173.227 Y186.559 E13.30119
G1 X173.311 Y185.66 E13.33122
G1 X173.488 Y184.711 E13.36332
G1 X173.649 Y184.055 E13.38579
G1 X174.131 Y182.295 E13.44648
G1 X174.359 Y181.507 E13.47377
G1 X174.649 Y180.652 E13.5038
G1 X175.105 Y179.645 E13.54056
G1 X175.605 Y178.685 E13.57656
G1 X176.059 Y177.839 E13.6085
G1 X177.036 Y175.907 E13.68051
G1 X177.479 Y175.12 E13.71054
G1 X178.073 Y174.266 E13.74514
G1 X178.432 Y173.808 E13.7645
G1 X179.534 Y172.462 E13.82236
G1 X180.111 Y171.776 E13.85217
G1 X180.722 Y171.112 E13.88218
G1 X181.559 Y170.367 E13.91945
G1 X182.381 Y169.714 E13.95437
G1 X183.14 Y169.127 E13.98628
G1 X184.832 Y167.748 E14.05888
G1 X185.556 Y167.209 E14.0889
G1 X186.453 Y166.667 E14.12376
G1 X187.055 Y166.348 E14.14642
G1 X188.694 Y165.526 E14.20741
G1 X189.336 Y165.215 E14.23113
G1 X190.166 Y164.858 E14.26118
G1 X191.227 Y164.52 E14.29822
G1 X192.05 Y164.307 E14.32649
G1 X193.116 Y164.046 E14.363
G1 X195.235 Y163.473 E14.43601
G1 X196.117 Y163.276 E14.46606
G1 X197.219 Y163.142 E14.50299
G1 X198.573 Y163.055 E14.54811
G1 X200.328 Y162.983 E14.60654
G1 X201.231 Y162.986 E14.63657
G1 X202.428 Y163.114 E14.67661
G1 X203.513 Y163.296 E14.7132
G1 X204.417 Y163.46 E14.74376
G1 X206.518 Y163.786 E14.81447
G1 X207.403 Y163.964 E14.8445
G1 X208.461 Y164.288 E14.8813
G1 X209.758 Y164.767 E14.92729
G1 X211.385 Y165.414 E14.98552
G1 X212.209 Y165.784 E15.01557
G1 X213.241 Y166.383 E15.05525
G1 X214.121 Y166.966 E15.09036
G1 X214.915 Y167.506 E15.1223
G1 X216.711 Y168.666 E15.19341
G1 X217.448 Y169.189 E15.22347
G1 X218.284 Y169.917 E15.26034
G1 X219.042 Y170.653 E15.29548
G1 X220.485 Y172.126 E15.36406
G1 X221.087 Y172.8 E15.39412
G1 X221.786 Y173.765 E15.43375
G1 X222.303 Y174.575 E15.46571
G1 X222.87 Y175.49 E15.50151
G1 X224.062 Y177.317 E15.57407
G1 X224.522 Y178.094 E15.6041
G1 X224.947 Y178.996 E15.63727
G1 X225.188 Y179.591 E15.65862
G1 X225.816 Y181.253 E15.71771
G1 X226.117 Y182.096 E15.74748
G1 X226.382 Y182.96 E15.77754
G1 X226.593 Y183.997 E15.81274
G1 X226.718 Y184.83 E15.84076
G1 X226.86 Y185.882 E15.87606
G1 X227.226 Y188.148 E15.95241
G1 X227.33 Y189.045 E15.98244
G1 X227.35 Y190.136 E16.01873
G1 X227.324 Y190.782 E16.04024
G1 X227.229 Y192.432 E16.09521
G1 X227.165 Y193.315 E16.12465
G1 X227.059 Y194.212 E16.15469
G1 X226.824 Y195.281 E16.1911
G1 X226.553 Y196.26 E16.22488
G1 X226.272 Y197.226 E16.25835
G1 X225.715 Y199.33 E16.33074
G1 X225.445 Y200.192 E16.36078
G1 X225.044 Y201.146 E16.3952
G1 X224.762 Y201.724 E16.41659
G1 X223.966 Y203.266 E16.47431
G1 X223.561 Y204.024 E16.50289
G1 X223.1 Y204.801 E16.53294
G1 X222.442 Y205.695 E16.56986
G1 X221.887 Y206.369 E16.5989
G1 X221.151 Y207.239 E16.6368
G1 X219.779 Y208.944 E16.70959
G1 X219.183 Y209.622 E16.73962
G1 X218.448 Y210.313 E16.77317
G1 X217.97 Y210.714 E16.79392
G1 X216.498 Y211.892 E16.85663
G1 X215.908 Y212.351 E16.88149
G1 X215.171 Y212.873 E16.91153
G1 X214.192 Y213.43 E16.94899
G1 X213.323 Y213.862 E16.98127
G1 X212.449 Y214.282 E17.01352
G1 X210.496 Y215.284 E17.08653
G1 X209.675 Y215.66 E17.11656
G1 X208.624 Y216.021 E17.15352
G1 X207.362 Y216.377 E17.19713
G1 X206.352 Y216.642 E17.23186
G1 X205.529 Y216.846 E17.26007
G1 X204.643 Y217.023 E17.29012
G1 F2700 E12.29012
;MESH:third p3-1(1.2mm).stl
G0 F6000 X197.656 Y207.645
G0 X197.831 Y206.57
G0 X198.073 Y200.553
G0 X194.637 Y199.211
G0 X194.159 Y199.925
G0 X194.033 Y198.815
G0 X191.246 Y196.021
G0 X190.875 Y196.123
G0 X191.357 Y195.151
G0 X190.986 Y194.419
G0 X190.859 Y194.035
G0 X191.392 Y194.919
G0 X191.547 Y194.831
;TYPE:WALL-INNER
G1 F2700 E17.29012
G1 F875.9 X191.28 Y194.309 E17.31683
G1 F874.3 X191.103 Y193.904 E17.33701
G1 F872.7 X190.952 Y193.514 E17.35614
G1 F869.6 X190.809 Y193.084 E17.37693
G1 F868 X190.703 Y192.724 E17.39419
G1 F869.6 X190.598 Y192.294 E17.41451
G1 F1008.4 X190.588 Y191.875 E17.4311
G1 F1200 X190.523 Y191.451 E17.44536
G1 F1004.2 X190.407 Y191.084 E17.46066
G1 F869.6 X190.374 Y190.594 E17.4832
G1 F872.7 X190.365 Y190.175 E17.50237
G1 X190.376 Y189.726 E17.52291
G1 F874.3 X190.405 Y189.323 E17.54135
G1 F872.7 X190.452 Y188.865 E17.56241
G1 X190.554 Y188.239 E17.59142
G1 F1012.7 X190.77 Y187.685 E17.61485
G1 F1113.7 X190.853 Y187.279 E17.6297
G1 F944.9 X190.882 Y187.018 E17.64079
G1 F871.1 X191.113 Y186.436 E17.66948
G1 F875.9 X191.303 Y186.004 E17.69099
G1 X191.68 Y185.284 E17.72802
G1 F874.3 X191.901 Y184.922 E17.74738
G1 F872.7 X192.16 Y184.535 E17.76868
G1 F1010.5 X192.452 Y184.262 E17.78447
G1 F1200 X192.722 Y183.934 E17.7986
G1 F1004.2 X192.941 Y183.563 E17.81572
G1 F869.6 X193.236 Y183.258 E17.8352
G1 F872.7 X193.555 Y182.955 E17.85532
G1 X193.876 Y182.676 E17.87477
G1 F874.3 X194.168 Y182.44 E17.89191
G1 F875.9 X194.552 Y182.16 E17.91356
G1 X194.908 Y181.922 E17.93307
G1 F869.6 X195.262 Y181.704 E17.95216
G1 F1004.2 X195.644 Y181.585 E17.96806
