;FLAVOR:Marlin
;TIME:231
;Filament used: 0.134863m
;Layer height: 0.2
;MINX:171.195
;MINY:163.185
;MINZ:0.2
;MAXX:227.17
;MAXY:219.137
;MAXZ:0.8
;TARGET_MACHINE.NAME:Creality Ender-3
;Generated with Cura_SteamEngine 5.9.0
M140 S50
M105
M190 S50
M104 S200
M105
M109 S200
M82 ;absolute extrusion mode
; Ender 3 Custom Start G-code
G92 E0 ; Reset Extruder
G28 ; Home all axes
G1 Z2.0 F3000 ; Move Z Axis up little to prevent scratching of Heat Bed
G1 X0.1 Y20 Z0.3 F5000.0 ; Move to start position
G1 X0.1 Y200.0 Z0.3 F1500.0 E15 ; Draw the first line
G1 X0.4 Y200.0 Z0.3 F5000.0 ; Move to side a little
G1 X0.4 Y20 Z0.3 F1500.0 E30 ; Draw the second line
G92 E0 ; Reset Extruder
G1 Z2.0 F3000 ; Move Z Axis up little to prevent scratching of Heat Bed
G1 X5 Y20 Z0.3 F5000.0 ; Move over to prevent blob squish
G92 E0
G92 E0
G1 F2700 E-5
;LAYER_COUNT:4
;LAYER:0
M107
G0 F6000 X202.6 Y218.935 Z0.2
;TYPE:SKIRT
G1 F2700 E0
G1 F1200 X201.578 Y218.979 E0.03402
G1 X200.707 Y219.004 E0.063
G1 X198.448 Y219.127 E0.13825
G1 X197.47 Y219.137 E0.17078
G1 X196.316 Y219.037 E0.20931
G1 X195.011 Y218.849 E0.25316
G1 X193.821 Y218.653 E0.29327
G1 X193.061 Y218.515 E0.31896
G1 X192.105 Y218.296 E0.35158
G1 X191.062 Y217.951 E0.38812
G1 X190.012 Y217.538 E0.42565
G1 X189.108 Y217.17 E0.45811
G1 X187.125 Y216.415 E0.52869
G1 X186.226 Y216.023 E0.56131
G1 X185.234 Y215.472 E0.59905
G1 X184.115 Y214.767 E0.64304
G1 X183.091 Y214.094 E0.68379
G1 X182.468 Y213.67 E0.70886
G1 X181.744 Y213.13 E0.7389
G1 X180.84 Y212.31 E0.77949
G1 X180.229 Y211.689 E0.80847
G1 X179.444 Y210.869 E0.84622
G1 X177.905 Y209.339 E0.9184
G1 X177.244 Y208.616 E0.95098
G1 X176.553 Y207.698 E0.9892
G1 X175.944 Y206.793 E1.02548
G1 X174.822 Y205.025 E1.09513
G1 X174.335 Y204.169 E1.12788
G1 X173.83 Y203.025 E1.16948
G1 X173.465 Y202.046 E1.20423
G1 X173.169 Y201.216 E1.23354
G1 X172.339 Y199.074 E1.30994
G1 X172.04 Y198.182 E1.34123
G1 X171.783 Y197.091 E1.37851
G1 X171.666 Y196.416 E1.4013
G1 X171.379 Y194.54 E1.46442
G1 X171.282 Y193.828 E1.48832
G1 X171.195 Y192.852 E1.52091
G1 X171.203 Y191.704 E1.55909
G1 X171.253 Y190.864 E1.58708
G1 X171.34 Y189.674 E1.62676
G1 X171.445 Y187.52 E1.69849
G1 X171.543 Y186.508 E1.73231
G1 X171.743 Y185.463 E1.7677
G1 X171.895 Y184.849 E1.78873
G1 X172.605 Y182.296 E1.87687
G1 X172.92 Y181.366 E1.90953
G1 X173.406 Y180.292 E1.94874
G1 X173.82 Y179.498 E1.97852
G1 X174.352 Y178.508 E2.0159
G1 X175.353 Y176.524 E2.08981
G1 X175.837 Y175.67 E2.12246
G1 X176.483 Y174.748 E2.1599
G1 X176.921 Y174.196 E2.18334
G1 X178.079 Y172.781 E2.24416
G1 X178.544 Y172.231 E2.26811
G1 X179.157 Y171.568 E2.29814
G1 X180.068 Y170.756 E2.33873
G1 X180.796 Y170.176 E2.36969
G1 X181.601 Y169.552 E2.40357
G1 X183.33 Y168.143 E2.47775
G1 X184.088 Y167.582 E2.50912
G1 X185.115 Y166.966 E2.54895
G1 X186.25 Y166.368 E2.59162
G1 X187.358 Y165.813 E2.63283
G1 X188.033 Y165.487 E2.65777
G1 X188.9 Y165.116 E2.68913
G1 X190.036 Y164.754 E2.72879
G1 X190.989 Y164.506 E2.76154
G1 X191.929 Y164.277 E2.79372
G1 X194.074 Y163.697 E2.86762
G1 X195.033 Y163.485 E2.90029
G1 X196.17 Y163.347 E2.93838
G1 X197.251 Y163.273 E2.97442
G1 X199.338 Y163.185 E3.0439
G1 X200.323 Y163.191 E3.07666
G1 X201.561 Y163.324 E3.11807
G1 X202.366 Y163.458 E3.14522
G1 X203.504 Y163.665 E3.18369
G1 X205.746 Y164.013 E3.25915
G1 X206.702 Y164.209 E3.29161
G1 X207.706 Y164.512 E3.32649
G1 X208.353 Y164.746 E3.34937
G1 X210.11 Y165.431 E3.41209
G1 X210.786 Y165.707 E3.43638
G1 X211.691 Y166.128 E3.46958
G1 X212.687 Y166.711 E3.50796
G1 X214.298 Y167.794 E3.57253
G1 X216.224 Y169.037 E3.64877
G1 X217.019 Y169.605 E3.68126
G1 X217.801 Y170.279 E3.7156
G1 X218.274 Y170.733 E3.73741
G1 X219.553 Y172.024 E3.79785
G1 X220.143 Y172.637 E3.82615
G1 X220.777 Y173.36 E3.85813
G1 X221.466 Y174.32 E3.89743
G1 X221.976 Y175.119 E3.92896
G1 X222.536 Y176.023 E3.96433
G1 X223.759 Y177.895 E4.0387
G1 X224.256 Y178.738 E4.07125
G1 X224.698 Y179.677 E4.10577
G1 X224.922 Y180.23 E4.12561
G1 X225.579 Y181.966 E4.18735
G1 X225.884 Y182.811 E4.21723
G1 X226.172 Y183.75 E4.2499
G1 X226.403 Y184.877 E4.28816
G1 X226.686 Y186.875 E4.35528
G1 X227.036 Y189.038 E4.42815
G1 X227.147 Y190.01 E4.46069
G1 X227.17 Y191.077 E4.49619
G1 X227.146 Y191.721 E4.51763
G1 X227.033 Y193.689 E4.58319
G1 X226.979 Y194.405 E4.60707
G1 X226.861 Y195.379 E4.6397
G1 X226.622 Y196.465 E4.67669
G1 X226.345 Y197.464 E4.71117
G1 X226.062 Y198.435 E4.74481
G1 X225.501 Y200.559 E4.81787
G1 X225.22 Y201.456 E4.84914
G1 X224.807 Y202.446 E4.88482
G1 X224.502 Y203.072 E4.90798
G1 X223.617 Y204.783 E4.97205
G1 X223.265 Y205.437 E4.99675
G1 X222.76 Y206.279 E5.02941
G1 X222.087 Y207.193 E5.06716
G1 X221.527 Y207.874 E5.09648
G1 X220.818 Y208.713 E5.13302
G1 X219.412 Y210.461 E5.20763
G1 X218.777 Y211.18 E5.23953
G1 X217.956 Y211.95 E5.27697
G1 X217.479 Y212.348 E5.29763
G1 X216.086 Y213.463 E5.35698
G1 X215.402 Y213.996 E5.38582
G1 X214.599 Y214.563 E5.41852
G1 X213.62 Y215.121 E5.456
G1 X211.821 Y216.004 E5.52265
G1 X209.853 Y217.013 E5.59621
G1 X209.032 Y217.39 E5.62625
G1 X207.877 Y217.79 E5.66691
G1 X206.805 Y218.094 E5.70397
G1 X204.807 Y218.61 E5.7726
G1 X203.923 Y218.795 E5.80264
G1 X202.6 Y218.935 E5.84689
G0 F6000 X203.841 Y218.403
G1 F1200 X202.583 Y218.535 E5.88896
G1 X201.567 Y218.579 E5.92279
G1 X200.696 Y218.604 E5.95177
G1 X198.426 Y218.728 E6.02738
G1 X197.505 Y218.738 E6.05802
G1 X196.351 Y218.638 E6.09654
G1 X195.076 Y218.454 E6.13939
G1 X193.892 Y218.259 E6.1793
G1 X193.15 Y218.125 E6.20438
G1 X192.231 Y217.916 E6.23572
G1 X191.188 Y217.571 E6.27226
G1 X190.163 Y217.168 E6.30889
G1 X189.25 Y216.796 E6.34168
G1 X187.284 Y216.048 E6.41165
G1 X186.42 Y215.673 E6.44297
G1 X185.447 Y215.133 E6.47998
G1 X184.335 Y214.433 E6.52369
G1 X183.316 Y213.763 E6.56425
G1 X182.707 Y213.349 E6.58874
G1 X181.983 Y212.809 E6.61878
G1 X181.125 Y212.029 E6.65735
G1 X180.518 Y211.412 E6.68614
G1 X179.733 Y210.592 E6.72389
G1 X178.2 Y209.069 E6.79577
G1 X177.563 Y208.375 E6.8271
G1 X176.885 Y207.475 E6.86458
G1 X176.282 Y206.579 E6.9005
G1 X175.169 Y204.827 E6.96953
G1 X174.701 Y204.007 E7.00094
G1 X174.205 Y202.885 E7.04174
G1 X173.842 Y201.912 E7.07628
G1 X173.546 Y201.082 E7.10559
G1 X172.718 Y198.946 E7.18178
G1 X172.429 Y198.09 E7.21183
G1 X172.177 Y197.022 E7.24833
G1 X172.061 Y196.356 E7.27081
G1 X171.775 Y194.486 E7.33373
G1 X171.68 Y193.792 E7.35703
G1 X171.595 Y192.854 E7.38836
G1 X171.602 Y191.728 E7.42581
G1 X171.652 Y190.893 E7.45363
G1 X171.74 Y189.693 E7.49365
G1 X171.845 Y187.539 E7.56538
G1 X171.936 Y186.583 E7.59732
G1 X172.131 Y185.559 E7.63199
G1 X172.281 Y184.955 E7.65269
G1 X172.795 Y183.082 E7.71729
G1 X172.984 Y182.424 E7.74006
G1 X173.285 Y181.531 E7.7714
G1 X173.761 Y180.477 E7.80986
G1 X174.172 Y179.687 E7.83948
G1 X174.704 Y178.697 E7.87686
G1 X175.701 Y176.721 E7.95048
G1 X176.165 Y175.9 E7.98184
G1 X176.811 Y174.978 E8.01929
G1 X177.23 Y174.449 E8.04173
G1 X178.385 Y173.039 E8.10236
G1 X178.838 Y172.503 E8.1257
G1 X179.451 Y171.84 E8.15573
G1 X180.317 Y171.069 E8.19429
G1 X181.041 Y170.492 E8.22509
G1 X181.854 Y169.862 E8.2593
G1 X183.568 Y168.465 E8.33284
G1 X184.326 Y167.904 E8.3642
G1 X185.301 Y167.32 E8.40201
G1 X186.429 Y166.726 E8.44441
G1 X187.532 Y166.173 E8.48545
G1 X188.19 Y165.855 E8.50975
G1 X189.057 Y165.484 E8.54112
G1 X190.137 Y165.141 E8.57881
G1 X191.084 Y164.895 E8.61135
G1 X192.024 Y164.665 E8.64354
G1 X194.161 Y164.087 E8.71717
G1 X195.081 Y163.882 E8.74852
G1 X196.197 Y163.746 E8.78591
G1 X197.268 Y163.673 E8.82161
G1 X199.336 Y163.585 E8.89046
G1 X200.28 Y163.589 E8.92186
G1 X201.495 Y163.719 E8.9625
G1 X202.295 Y163.852 E8.98947
G1 X203.433 Y164.058 E9.02794
G1 X205.666 Y164.405 E9.1031
G1 X206.587 Y164.592 E9.13436
G1 X207.57 Y164.888 E9.1685
G1 X208.208 Y165.119 E9.19107
G1 X209.959 Y165.802 E9.25358
G1 X210.618 Y166.07 E9.27724
G1 X211.489 Y166.473 E9.30916
G1 X212.466 Y167.044 E9.3468
G1 X213.286 Y167.588 E9.37953
G1 X214.081 Y168.13 E9.41153
G1 X215.992 Y169.363 E9.48717
G1 X216.758 Y169.908 E9.51844
G1 X217.524 Y170.567 E9.55205
G1 X217.99 Y171.015 E9.57355
G1 X219.265 Y172.302 E9.6338
G1 X219.842 Y172.901 E9.66147
G1 X220.476 Y173.624 E9.69345
G1 X221.129 Y174.535 E9.73073
G1 X221.636 Y175.329 E9.76206
G1 X222.201 Y176.242 E9.79777
G1 X223.415 Y178.099 E9.87157
G1 X223.894 Y178.909 E9.90286
G1 X224.327 Y179.827 E9.93662
G1 X224.548 Y180.372 E9.95618
G1 X225.203 Y182.102 E10.01771
G1 X225.502 Y182.929 E10.04696
G1 X225.78 Y183.83 E10.07832
G1 X226.007 Y184.936 E10.11587
G1 X226.144 Y185.858 E10.14688
G1 X226.291 Y186.939 E10.18316
G1 X226.639 Y189.084 E10.25544
G1 X226.747 Y190.019 E10.28674
G1 X226.77 Y191.063 E10.32147
G1 X226.747 Y191.698 E10.34261
G1 X226.634 Y193.659 E10.40794
G1 X226.582 Y194.357 E10.43122
G1 X226.47 Y195.293 E10.46257
G1 X226.236 Y196.358 E10.49884
G1 X225.961 Y197.352 E10.53314
G1 X225.678 Y198.323 E10.56678
G1 X225.119 Y200.439 E10.63957
G1 X224.838 Y201.336 E10.67084
G1 X224.447 Y202.271 E10.70455
G1 X224.147 Y202.888 E10.72736
G1 X223.265 Y204.594 E10.79124
G1 X222.922 Y205.232 E10.81533
G1 X222.438 Y206.042 E10.84672
G1 X221.778 Y206.939 E10.88376
G1 X221.221 Y207.616 E10.91292
G1 X220.512 Y208.455 E10.94945
G1 X219.112 Y210.196 E11.02376
G1 X218.477 Y210.915 E11.05566
G1 X217.7 Y211.643 E11.09107
G1 X217.229 Y212.036 E11.11148
G1 X215.84 Y213.148 E11.17066
G1 X215.171 Y213.67 E11.19888
G1 X214.401 Y214.215 E11.23026
G1 X213.422 Y214.773 E11.26774
G1 X212.502 Y215.231 E11.30192
G1 X211.638 Y215.648 E11.33383
G1 X209.686 Y216.649 E11.40679
G1 X208.865 Y217.026 E11.43684
G1 X207.768 Y217.405 E11.47544
G1 X206.705 Y217.707 E11.51219
G1 X204.725 Y218.218 E11.58021
G1 X203.841 Y218.403 E11.61025
G0 F6000 X203.759 Y218.011
G1 F1200 X202.566 Y218.135 E11.65014
G1 X201.556 Y218.179 E11.68376
G1 X200.685 Y218.204 E11.71274
G1 X198.404 Y218.329 E11.78872
G1 X197.501 Y218.338 E11.81876
G1 X196.408 Y218.242 E11.85525
G1 X195.141 Y218.059 E11.89783
G1 X193.963 Y217.865 E11.93754
G1 X193.238 Y217.735 E11.96204
G1 X192.357 Y217.536 E11.99208
G1 X191.314 Y217.191 E12.02862
G1 X190.314 Y216.798 E12.06435
G1 X189.392 Y216.422 E12.09747
G1 X187.443 Y215.681 E12.16682
G1 X186.614 Y215.323 E12.19686
G1 X185.641 Y214.783 E12.23387
G1 X184.555 Y214.099 E12.27656
G1 X183.541 Y213.432 E12.31692
G1 X182.946 Y213.028 E12.34084
G1 X182.222 Y212.488 E12.37088
G1 X181.41 Y211.748 E12.40742
G1 X180.807 Y211.136 E12.436
G1 X180.015 Y210.308 E12.47411
G1 X178.494 Y208.798 E12.54539
G1 X177.882 Y208.134 E12.57543
G1 X177.217 Y207.252 E12.61217
G1 X176.62 Y206.364 E12.64776
G1 X175.516 Y204.628 E12.71618
G1 X175.067 Y203.845 E12.7462
G1 X174.58 Y202.745 E12.78622
G1 X174.219 Y201.778 E12.82055
G1 X173.923 Y200.948 E12.84986
G1 X173.097 Y198.818 E12.92584
G1 X172.808 Y197.962 E12.95589
G1 X172.571 Y196.953 E12.99036
G1 X172.456 Y196.296 E13.01255
G1 X172.171 Y194.431 E13.0753
G1 X172.078 Y193.755 E13.09799
G1 X171.995 Y192.856 E13.12802
G1 X172.001 Y191.752 E13.16474
G1 X172.051 Y190.922 E13.1924
G1 X172.14 Y189.712 E13.23275
G1 X172.245 Y187.558 E13.30448
G1 X172.329 Y186.658 E13.33454
G1 X172.519 Y185.656 E13.36846
G1 X172.667 Y185.061 E13.38885
G1 X173.179 Y183.192 E13.45331
G1 X173.363 Y182.551 E13.47549
G1 X173.65 Y181.695 E13.50552
G1 X174.116 Y180.661 E13.54324
G1 X174.524 Y179.876 E13.57266
G1 X175.056 Y178.886 E13.61005
G1 X176.05 Y176.917 E13.68341
G1 X176.493 Y176.13 E13.71344
G1 X177.139 Y175.208 E13.75089
G1 X177.539 Y174.703 E13.77231
G1 X178.691 Y173.297 E13.83277
G1 X179.132 Y172.775 E13.8555
G1 X179.745 Y172.112 E13.88553
G1 X180.566 Y171.382 E13.92207
G1 X181.286 Y170.808 E13.9527
G1 X182.107 Y170.172 E13.98724
G1 X183.807 Y168.786 E14.06019
G1 X184.532 Y168.247 E14.09024
G1 X185.487 Y167.674 E14.12728
G1 X186.608 Y167.084 E14.16941
G1 X187.706 Y166.533 E14.21027
G1 X188.348 Y166.222 E14.234
G1 X189.178 Y165.865 E14.26405
G1 X190.237 Y165.528 E14.30102
G1 X191.179 Y165.284 E14.33338
G1 X192.119 Y165.054 E14.36557
G1 X194.249 Y164.477 E14.43896
G1 X195.13 Y164.279 E14.469
G1 X196.224 Y164.145 E14.50566
G1 X197.285 Y164.073 E14.54103
G1 X199.335 Y163.985 E14.60927
G1 X200.238 Y163.987 E14.63931
G1 X201.429 Y164.114 E14.67914
G1 X202.224 Y164.246 E14.70595
G1 X203.362 Y164.451 E14.74441
G1 X205.587 Y164.797 E14.8193
G1 X206.472 Y164.975 E14.84932
G1 X207.434 Y165.264 E14.88273
G1 X208.063 Y165.492 E14.90499
G1 X209.808 Y166.173 E14.96729
G1 X210.467 Y166.441 E14.99095
G1 X211.287 Y166.818 E15.02097
G1 X212.245 Y167.378 E15.05788
G1 X213.061 Y167.918 E15.09042
G1 X213.864 Y168.466 E15.12275
G1 X215.761 Y169.689 E15.19783
G1 X216.497 Y170.211 E15.22784
G1 X217.247 Y170.855 E15.26072
G1 X217.706 Y171.297 E15.28191
G1 X218.977 Y172.58 E15.34198
G1 X219.554 Y173.179 E15.36964
G1 X220.151 Y173.857 E15.39969
G1 X220.792 Y174.75 E15.43625
G1 X221.296 Y175.539 E15.46739
G1 X221.866 Y176.461 E15.50344
G1 X223.071 Y178.303 E15.57665
G1 X223.532 Y179.08 E15.6067
G1 X223.956 Y179.977 E15.6397
G1 X224.174 Y180.514 E15.65897
G1 X224.827 Y182.238 E15.72029
G1 X225.12 Y183.048 E15.74894
G1 X225.388 Y183.911 E15.77899
G1 X225.611 Y184.995 E15.8158
G1 X225.748 Y185.912 E15.84664
G1 X225.896 Y187.003 E15.88326
G1 X226.242 Y189.131 E15.95497
G1 X226.347 Y190.028 E15.98501
G1 X226.37 Y191.049 E16.01897
G1 X226.348 Y191.675 E16.03981
G1 X226.235 Y193.63 E16.10494
G1 X226.185 Y194.31 E16.12762
G1 X226.079 Y195.207 E16.15766
G1 X225.845 Y196.272 E16.19393
G1 X225.577 Y197.24 E16.22733
G1 X225.294 Y198.211 E16.26097
G1 X224.737 Y200.32 E16.33352
G1 X224.469 Y201.182 E16.36355
G1 X224.087 Y202.096 E16.39649
G1 X223.792 Y202.704 E16.41897
G1 X222.912 Y204.405 E16.48267
G1 X222.578 Y205.028 E16.50618
G1 X222.116 Y205.805 E16.53625
G1 X221.469 Y206.685 E16.57258
G1 X220.916 Y207.358 E16.60155
G1 X220.2 Y208.204 E16.63841
G1 X218.8 Y209.945 E16.71272
G1 X218.203 Y210.623 E16.74276
G1 X217.443 Y211.336 E16.77742
G1 X216.979 Y211.724 E16.79754
G1 X215.594 Y212.833 E16.85655
G1 X214.939 Y213.344 E16.88418
G1 X214.203 Y213.867 E16.91421
G1 X213.224 Y214.425 E16.95169
G1 X212.328 Y214.871 E16.98498
G1 X211.455 Y215.292 E17.01722
G1 X209.519 Y216.285 E17.08959
G1 X208.698 Y216.662 E17.11963
G1 X207.658 Y217.02 E17.15622
G1 X206.605 Y217.32 E17.19263
G1 X204.643 Y217.826 E17.26002
G1 X203.759 Y218.011 E17.29006
G1 F2700 E12.29006
;MESH:third p2 -1(0.8mm).stl
G0 F6000 X193.712 Y198.324
G0 X191.403 Y195.335
;TYPE:WALL-INNER
G1 F2700 E17.29006
G1 F1200 X191.35 Y195.238 E17.29374
G1 X191.187 Y194.91 E17.30592
G1 X190.888 Y194.19 E17.33185
G1 X190.76 Y193.812 E17.34513
G1 X190.662 Y193.476 E17.35677
G1 X190.563 Y193.073 E17.37057
G1 X190.486 Y192.687 E17.38366
G1 X190.431 Y192.306 E17.39646
G1 X190.393 Y191.934 E17.4089
G1 X190.368 Y191.562 E17.4213
G1 X190.36 Y191.175 E17.43418
G1 X190.369 Y190.778 E17.44738
G1 X190.394 Y190.415 E17.45949
G1 X190.434 Y190.029 E17.47239
G1 X190.495 Y189.635 E17.48565
G1 X190.598 Y189.124 E17.50299
G1 X190.758 Y188.56 E17.52249
G1 X190.896 Y188.155 E17.53672
G1 X191.03 Y187.81 E17.54903
G1 X191.182 Y187.464 E17.5616
G1 X191.362 Y187.101 E17.57508
G1 X191.543 Y186.776 E17.58745
G1 X191.748 Y186.439 E17.60057
G1 X191.953 Y186.132 E17.61285
G1 X192.161 Y185.844 E17.62466
G1 X192.422 Y185.518 E17.63855
G1 X192.685 Y185.222 E17.65172
G1 X192.941 Y184.953 E17.66407
G1 X193.214 Y184.694 E17.67659
G1 X193.498 Y184.442 E17.68922
G1 X193.82 Y184.186 E17.7029
G1 X194.114 Y183.972 E17.715
G1 X194.446 Y183.752 E17.72824
G1 X194.772 Y183.553 E17.74095
G1 X195.102 Y183.373 E17.75345
G1 X195.462 Y183.197 E17.76678
G1 X196.126 Y182.922 E17.79068
G1 X196.532 Y182.783 E17.80495
