;FLAVOR:Marlin
;TIME:762
;Filament used: 0.460126m
;Layer height: 0.2
;MINX:73.833
;MINY:162.562
;MINZ:0.2
;MAXX:228.021
;MAXY:219.228
;MAXZ:1
;TARGET_MACHINE.NAME:Creality Ender-3
;Generated with Cura_SteamEngine 5.9.0
M140 S50
M105
M190 S50
M104 S200
M105
M109 S200
M82 ;absolute extrusion mode
; Ender 3 Custom Start G-code
G92 E0 ; Reset Extruder
G28 ; Home all axes
G1 Z2.0 F3000 ; Move Z Axis up little to prevent scratching of Heat Bed
G1 X0.1 Y20 Z0.3 F5000.0 ; Move to start position
G1 X0.1 Y200.0 Z0.3 F1500.0 E15 ; Draw the first line
G1 X0.4 Y200.0 Z0.3 F5000.0 ; Move to side a little
G1 X0.4 Y20 Z0.3 F1500.0 E30 ; Draw the second line
G92 E0 ; Reset Extruder
G1 Z2.0 F3000 ; Move Z Axis up little to prevent scratching of Heat Bed
G1 X5 Y20 Z0.3 F5000.0 ; Move over to prevent blob squish
G92 E0
G92 E0
G1 F2700 E-5
;LAYER_COUNT:5
;LAYER:0
M107
G0 F6000 X104.898 Y219.066 Z0.2
;TYPE:SKIRT
G1 F2700 E0
G1 F1200 X104.249 Y219.113 E0.02164
G1 X102.343 Y219.204 E0.08511
G1 X101.612 Y219.228 E0.10943
G1 X100.63 Y219.215 E0.1421
G1 X99.476 Y219.087 E0.18072
G1 X98.481 Y218.922 E0.21426
G1 X97.533 Y218.75 E0.24631
G1 X95.338 Y218.411 E0.32018
G1 X94.377 Y218.216 E0.35279
G1 X93.297 Y217.886 E0.39035
G1 X92.096 Y217.447 E0.43288
G1 X91.034 Y217.035 E0.47077
G1 X90.232 Y216.71 E0.49955
G1 X89.411 Y216.334 E0.52959
G1 X88.352 Y215.718 E0.57034
G1 X87.459 Y215.13 E0.6059
G1 X86.635 Y214.571 E0.63901
G1 X84.821 Y213.406 E0.71072
G1 X84.083 Y212.885 E0.74077
G1 X83.174 Y212.103 E0.78065
G1 X82.662 Y211.606 E0.80438
G1 X81.403 Y210.336 E0.86386
G1 X80.883 Y209.797 E0.88877
G1 X80.285 Y209.121 E0.91879
G1 X79.552 Y208.108 E0.96038
G1 X78.976 Y207.207 E0.99594
G1 X78.474 Y206.396 E1.02767
G1 X77.294 Y204.598 E1.0992
G1 X76.797 Y203.754 E1.13177
G1 X76.309 Y202.712 E1.17004
G1 X75.903 Y201.705 E1.20616
G1 X75.433 Y200.469 E1.25014
G1 X75.129 Y199.629 E1.27985
G1 X74.84 Y198.692 E1.31246
G1 X74.617 Y197.617 E1.34898
G1 X74.49 Y196.78 E1.37714
G1 X74.329 Y195.617 E1.41619
G1 X73.969 Y193.406 E1.49069
G1 X73.857 Y192.434 E1.52324
G1 X73.833 Y191.351 E1.55927
G1 X73.857 Y190.695 E1.5811
G1 X73.967 Y188.745 E1.64606
G1 X74.021 Y188.026 E1.67004
G1 X74.139 Y187.054 E1.70261
G1 X74.377 Y185.966 E1.73965
G1 X74.64 Y185.015 E1.77247
G1 X74.901 Y184.12 E1.80347
G1 X75.49 Y181.882 E1.88045
G1 X75.784 Y180.948 E1.91301
G1 X76.203 Y179.952 E1.94895
G1 X76.503 Y179.336 E1.97174
G1 X77.292 Y177.804 E2.02906
G1 X77.699 Y177.036 E2.05797
G1 X78.157 Y176.257 E2.08802
G1 X78.893 Y175.248 E2.12956
G1 X80.166 Y173.723 E2.19563
G1 X81.561 Y171.98 E2.26988
G1 X82.208 Y171.245 E2.30245
G1 X82.973 Y170.524 E2.33742
G1 X83.412 Y170.154 E2.35651
G1 X84.988 Y168.887 E2.42377
G1 X85.583 Y168.425 E2.44882
G1 X86.352 Y167.881 E2.48015
G1 X87.382 Y167.291 E2.51963
G1 X88.222 Y166.87 E2.55089
G1 X89.251 Y166.372 E2.58891
G1 X91.111 Y165.412 E2.65853
G1 X91.967 Y165.019 E2.68985
G1 X93.11 Y164.624 E2.73008
G1 X94.329 Y164.279 E2.77221
G1 X95.569 Y163.954 E2.81485
G1 X96.264 Y163.783 E2.83865
G1 X97.225 Y163.594 E2.87123
G1 X98.371 Y163.479 E2.90954
G1 X99.22 Y163.441 E2.9378
G1 X100.262 Y163.408 E2.97248
G1 X102.591 Y163.276 E3.05006
G1 X103.567 Y163.267 E3.08253
G1 X104.545 Y163.345 E3.11516
G1 X105.24 Y163.44 E3.13849
G1 X107.175 Y163.755 E3.20369
G1 X109.465 Y164.165 E3.28107
G1 X112.03 Y164.578 E3.36748
G1 X114.522 Y164.907 E3.45109
G1 X117.015 Y165.164 E3.53444
G1 X119.539 Y165.353 E3.61863
G1 X122.081 Y165.472 E3.70327
G1 X124.578 Y165.518 E3.78633
G1 X127.072 Y165.492 E3.86929
G1 X129.614 Y165.394 E3.9539
G1 X132.095 Y165.229 E4.0366
G1 X134.612 Y164.989 E4.12069
G1 X137.141 Y164.676 E4.20545
G1 X139.561 Y164.307 E4.28687
G1 X143.314 Y163.6 E4.41389
G1 X144.027 Y163.449 E4.43813
G1 X144.621 Y163.342 E4.4582
G1 X146.65 Y163.049 E4.52639
G1 X148.805 Y162.698 E4.59901
G1 X149.777 Y162.586 E4.63155
G1 X150.846 Y162.562 E4.66712
G1 X151.502 Y162.585 E4.68895
G1 X153.255 Y162.684 E4.74735
G1 X154.14 Y162.747 E4.77686
G1 X155.095 Y162.858 E4.80883
G1 X155.727 Y162.98 E4.83024
G1 X157.249 Y163.318 E4.8821
G1 X159.813 Y163.834 E4.96909
G1 X162.263 Y164.256 E5.05177
G1 X164.77 Y164.615 E5.13601
G1 X167.253 Y164.899 E5.21913
G1 X169.811 Y165.121 E5.30453
G1 X172.258 Y165.26 E5.38605
G1 X174.827 Y165.334 E5.47153
G1 X177.314 Y165.336 E5.55425
G1 X179.856 Y165.266 E5.63883
G1 X182.324 Y165.13 E5.72104
G1 X184.863 Y164.916 E5.80578
G1 X187.352 Y164.634 E5.8891
G1 X189.891 Y164.275 E5.97439
G1 X192.285 Y163.866 E6.05516
G1 X195.594 Y163.192 E6.16748
G1 X196.974 Y163.001 E6.21382
G1 X197.614 Y162.956 E6.23516
G1 X199.364 Y162.871 E6.29343
G1 X200.242 Y162.841 E6.32265
G1 X201.224 Y162.854 E6.35531
G1 X202.378 Y162.982 E6.39393
G1 X203.373 Y163.147 E6.42748
G1 X204.333 Y163.321 E6.45993
G1 X206.51 Y163.657 E6.53319
G1 X207.471 Y163.852 E6.56581
G1 X208.553 Y164.182 E6.60343
G1 X209.579 Y164.555 E6.63974
G1 X210.998 Y165.106 E6.69037
G1 X211.656 Y165.376 E6.71403
G1 X212.51 Y165.773 E6.74535
G1 X213.475 Y166.336 E6.78251
G1 X214.328 Y166.895 E6.81643
G1 X215.14 Y167.448 E6.8491
G1 X217.042 Y168.671 E6.92431
G1 X217.836 Y169.237 E6.95675
G1 X218.589 Y169.881 E6.9897
G1 X219.105 Y170.376 E7.01348
G1 X220.459 Y171.74 E7.07741
G1 X220.966 Y172.266 E7.10171
G1 X221.626 Y173.019 E7.13501
G1 X222.303 Y173.961 E7.17359
G1 X222.791 Y174.724 E7.20372
G1 X223.371 Y175.659 E7.24031
G1 X224.589 Y177.515 E7.31415
G1 X225.086 Y178.359 E7.34673
G1 X225.569 Y179.392 E7.38465
G1 X225.835 Y180.055 E7.40841
G1 X226.419 Y181.593 E7.46313
G1 X226.706 Y182.379 E7.49096
G1 X227.004 Y183.333 E7.5242
G1 X227.232 Y184.425 E7.56131
G1 X227.362 Y185.278 E7.59001
G1 X227.524 Y186.443 E7.62913
G1 X227.885 Y188.663 E7.70393
G1 X227.997 Y189.635 E7.73648
G1 X228.021 Y190.718 E7.77251
G1 X227.997 Y191.372 E7.79427
G1 X227.898 Y193.149 E7.85347
G1 X227.834 Y194.028 E7.88278
G1 X227.717 Y195 E7.91534
G1 X227.477 Y196.1 E7.95279
G1 X227.26 Y196.89 E7.98004
G1 X226.968 Y197.896 E8.01488
G1 X226.377 Y200.14 E8.09206
G1 X226.109 Y201.002 E8.12208
G1 X225.63 Y202.137 E8.16306
G1 X225.068 Y203.284 E8.20554
G1 X224.492 Y204.401 E8.24734
G1 X224.143 Y205.052 E8.27191
G1 X223.662 Y205.863 E8.30327
G1 X222.955 Y206.827 E8.34303
G1 X221.758 Y208.263 E8.40521
G1 X220.323 Y210.053 E8.48152
G1 X219.727 Y210.732 E8.51157
G1 X218.832 Y211.571 E8.55237
G1 X217.762 Y212.464 E8.59872
G1 X216.35 Y213.583 E8.65864
G1 X215.548 Y214.159 E8.69149
G1 X214.471 Y214.778 E8.7328
G1 X213.571 Y215.228 E8.76627
G1 X212.681 Y215.659 E8.79916
G1 X210.718 Y216.671 E8.87261
G1 X209.832 Y217.077 E8.90503
G1 X208.921 Y217.401 E8.93719
G1 X208.24 Y217.601 E8.9608
G1 X206.445 Y218.074 E9.02254
G1 X205.583 Y218.287 E9.05207
G1 X204.62 Y218.477 E9.08472
G1 X203.488 Y218.59 E9.12255
G1 X202.534 Y218.633 E9.15432
G1 X201.478 Y218.667 E9.18946
G1 X199.266 Y218.792 E9.26315
G1 X198.289 Y218.802 E9.29564
G1 X197.309 Y218.724 E9.32834
G1 X196.614 Y218.629 E9.35167
G1 X194.849 Y218.343 E9.41114
G1 X193.968 Y218.187 E9.4409
G1 X192.947 Y217.981 E9.47554
G1 X190.355 Y217.484 E9.56332
G1 X187.869 Y217.081 E9.64709
G1 X185.417 Y216.754 E9.72936
G1 X182.85 Y216.485 E9.81521
G1 X180.384 Y216.298 E9.89746
G1 X177.855 Y216.177 E9.98167
G1 X175.353 Y216.128 E10.06491
G1 X172.823 Y216.151 E10.14906
G1 X170.29 Y216.245 E10.23336
G1 X167.785 Y216.409 E10.31686
G1 X165.3 Y216.643 E10.39988
G1 X162.799 Y216.949 E10.48368
G1 X160.282 Y217.331 E10.56836
G1 X158.327 Y217.678 E10.6344
G1 X156.268 Y218.057 E10.70403
G1 X154.547 Y218.323 E10.76195
G1 X153.679 Y218.444 E10.7911
G1 X152.701 Y218.534 E10.82376
G1 X151.534 Y218.527 E10.86258
G1 X150.517 Y218.466 E10.89647
G1 X149.552 Y218.396 E10.92865
G1 X147.36 Y218.292 E11.00163
G1 X146.369 Y218.2 E11.03474
G1 X145.896 Y218.122 E11.05068
G1 X145.004 Y217.957 E11.08085
G1 X143.742 Y217.708 E11.12364
G1 X141.248 Y217.289 E11.20775
G1 X138.779 Y216.947 E11.29065
G1 X136.229 Y216.665 E11.37598
G1 X133.737 Y216.46 E11.45915
G1 X131.232 Y216.328 E11.54258
G1 X128.692 Y216.264 E11.62709
G1 X126.203 Y216.273 E11.70987
G1 X123.68 Y216.352 E11.79383
G1 X121.124 Y216.505 E11.87899
G1 X118.674 Y216.722 E11.9608
G1 X116.164 Y217.015 E12.04485
G1 X113.673 Y217.379 E12.12858
G1 X111.171 Y217.816 E12.21306
G1 X108.741 Y218.31 E12.29553
G1 X107.551 Y218.591 E12.3362
G1 X106.388 Y218.847 E12.37581
G1 X105.47 Y219.007 E12.4068
G1 X104.898 Y219.066 E12.42593
G0 F6000 X105.401 Y218.613
G1 F1200 X104.869 Y218.667 E12.44371
G1 X104.23 Y218.713 E12.46502
G1 X102.33 Y218.804 E12.52829
G1 X101.617 Y218.828 E12.55201
G1 X100.674 Y218.817 E12.58338
G1 X99.541 Y218.692 E12.62129
G1 X98.552 Y218.528 E12.65464
G1 X97.604 Y218.357 E12.68668
G1 X95.417 Y218.019 E12.76028
G1 X94.494 Y217.833 E12.7916
G1 X93.434 Y217.51 E12.82845
G1 X92.241 Y217.074 E12.8707
G1 X91.184 Y216.664 E12.90841
G1 X90.399 Y216.346 E12.93658
G1 X89.578 Y215.97 E12.96661
G1 X88.572 Y215.384 E13.00533
G1 X87.684 Y214.799 E13.0407
G1 X86.86 Y214.24 E13.07382
G1 X85.052 Y213.079 E13.14528
G1 X84.314 Y212.558 E13.17533
G1 X83.453 Y211.816 E13.21313
G1 X82.946 Y211.324 E13.23663
G1 X81.691 Y210.058 E13.29592
G1 X81.183 Y209.532 E13.32024
G1 X80.585 Y208.856 E13.35026
G1 X79.889 Y207.892 E13.38981
G1 X79.316 Y206.996 E13.42518
G1 X78.814 Y206.185 E13.45691
G1 X77.638 Y204.394 E13.52817
G1 X77.159 Y203.584 E13.55947
G1 X76.68 Y202.562 E13.59701
G1 X76.277 Y201.563 E13.63284
G1 X75.809 Y200.333 E13.67661
G1 X75.511 Y199.511 E13.70569
G1 X75.232 Y198.611 E13.73703
G1 X75.009 Y197.536 E13.77354
G1 X74.886 Y196.725 E13.80083
G1 X74.725 Y195.562 E13.83988
G1 X74.366 Y193.36 E13.91408
G1 X74.257 Y192.425 E13.94539
G1 X74.233 Y191.365 E13.98066
G1 X74.256 Y190.718 E14.00219
G1 X74.366 Y188.775 E14.06692
G1 X74.418 Y188.074 E14.0903
G1 X74.53 Y187.139 E14.12162
G1 X74.768 Y186.051 E14.15866
G1 X75.024 Y185.127 E14.19055
G1 X75.285 Y184.232 E14.22156
G1 X75.872 Y182.001 E14.29829
G1 X76.153 Y181.103 E14.32958
G1 X76.563 Y180.127 E14.36479
G1 X76.859 Y179.519 E14.38728
G1 X77.646 Y177.991 E14.44445
G1 X78.044 Y177.239 E14.47275
G1 X78.502 Y176.46 E14.5028
G1 X79.216 Y175.484 E14.54303
G1 X80.473 Y173.979 E14.60824
G1 X81.862 Y172.244 E14.68217
G1 X82.483 Y171.536 E14.71349
G1 X83.231 Y170.83 E14.7477
G1 X83.663 Y170.466 E14.76649
G1 X85.234 Y169.203 E14.83353
G1 X85.814 Y168.752 E14.85797
G1 X86.583 Y168.208 E14.8893
G1 X87.561 Y167.649 E14.92676
G1 X88.396 Y167.23 E14.95784
G1 X89.425 Y166.732 E14.99586
G1 X91.278 Y165.776 E15.06521
G1 X92.134 Y165.383 E15.09654
G1 X93.219 Y165.009 E15.13471
G1 X94.431 Y164.666 E15.1766
G1 X95.665 Y164.342 E15.21904
G1 X96.342 Y164.175 E15.24223
G1 X97.265 Y163.992 E15.27353
G1 X98.389 Y163.879 E15.3111
G1 X99.233 Y163.841 E15.3392
G1 X100.275 Y163.808 E15.37387
G1 X102.595 Y163.676 E15.45116
G1 X103.535 Y163.666 E15.48243
G1 X104.513 Y163.744 E15.51506
G1 X105.176 Y163.835 E15.53732
G1 X107.105 Y164.149 E15.60232
G1 X109.401 Y164.56 E15.6799
G1 X111.978 Y164.975 E15.76672
G1 X114.47 Y165.304 E15.85032
G1 X116.98 Y165.563 E15.93425
G1 X119.52 Y165.753 E16.01896
G1 X122.062 Y165.872 E16.1036
G1 X124.575 Y165.918 E16.1872
G1 X127.087 Y165.892 E16.27075
G1 X129.629 Y165.794 E16.35536
G1 X132.124 Y165.628 E16.43853
G1 X134.661 Y165.386 E16.52329
G1 X137.19 Y165.073 E16.60805
G1 X139.635 Y164.7 E16.69031
G1 X143.388 Y163.993 E16.81733
G1 X144.098 Y163.843 E16.84147
G1 X144.68 Y163.738 E16.86114
G1 X145.792 Y163.571 E16.89854
G1 X146.714 Y163.444 E16.92949
G1 X148.851 Y163.095 E17.00151
G1 X149.786 Y162.986 E17.03282
G1 X150.832 Y162.962 E17.06762
G1 X151.479 Y162.984 E17.08915
G1 X153.227 Y163.083 E17.14739
G1 X154.094 Y163.144 E17.17629
G1 X155.02 Y163.251 E17.2073
G1 X155.64 Y163.37 E17.22829
G1 X157.17 Y163.71 E17.28042
G1 X159.738 Y164.227 E17.36755
G1 X162.206 Y164.652 E17.45084
G1 X164.713 Y165.011 E17.53508
G1 X167.219 Y165.298 E17.61897
G1 X169.777 Y165.519 E17.70437
G1 X172.246 Y165.66 E17.78662
G1 X174.815 Y165.734 E17.8721
G1 X177.325 Y165.736 E17.95559
G1 X179.867 Y165.666 E18.04016
G1 X182.358 Y165.528 E18.12314
G1 X184.897 Y165.314 E18.20789
G1 X187.408 Y165.03 E18.29194
G1 X189.947 Y164.671 E18.37723
G1 X192.365 Y164.258 E18.45881
G1 X195.674 Y163.584 E18.57113
G1 X197.002 Y163.4 E18.61572
G1 X197.633 Y163.356 E18.63676
G1 X199.378 Y163.271 E18.69487
G1 X200.237 Y163.241 E18.72346
G1 X201.18 Y163.252 E18.75482
G1 X202.313 Y163.377 E18.79273
G1 X203.302 Y163.541 E18.82608
G1 X204.262 Y163.714 E18.85852
G1 X206.431 Y164.049 E18.93152
G1 X207.355 Y164.235 E18.96287
G1 X208.416 Y164.558 E18.99976
G1 X209.434 Y164.928 E19.03578
G1 X210.846 Y165.476 E19.08616
G1 X211.487 Y165.739 E19.1092
G1 X212.341 Y166.136 E19.14053
G1 X213.256 Y166.671 E19.17578
G1 X214.103 Y167.226 E19.20946
G1 X214.924 Y167.785 E19.24249
G1 X216.81 Y168.997 E19.31706
G1 X217.576 Y169.541 E19.34831
G1 X218.312 Y170.17 E19.38051
G1 X218.821 Y170.658 E19.40396
G1 X220.171 Y172.018 E19.4677
G1 X220.678 Y172.544 E19.492
G1 X221.301 Y173.252 E19.52336
G1 X221.966 Y174.177 E19.56125
G1 X222.451 Y174.935 E19.59118
G1 X223.032 Y175.87 E19.6278
G1 X224.245 Y177.718 E19.70132
G1 X224.724 Y178.529 E19.73265
G1 X225.198 Y179.541 E19.76982
G1 X225.461 Y180.197 E19.79332
G1 X226.043 Y181.73 E19.84786
G1 X226.324 Y182.499 E19.87509
G1 X226.612 Y183.415 E19.90703
G1 X226.84 Y184.507 E19.94413
G1 X226.966 Y185.333 E19.97192
G1 X227.129 Y186.507 E20.01135
G1 X227.488 Y188.709 E20.08555
G1 X227.597 Y189.644 E20.11686
G1 X227.621 Y190.704 E20.15212
G1 X227.598 Y191.35 E20.17362
G1 X227.499 Y193.12 E20.23259
G1 X227.437 Y193.981 E20.2613
G1 X227.326 Y194.915 E20.29258
G1 X227.091 Y195.994 E20.32931
G1 X226.876 Y196.778 E20.35635
G1 X226.584 Y197.784 E20.39119
G1 X225.995 Y200.021 E20.46813
G1 X225.727 Y200.883 E20.49815
G1 X225.271 Y201.961 E20.53708
G1 X224.712 Y203.101 E20.57931
G1 X224.139 Y204.212 E20.62089
G1 X223.799 Y204.848 E20.64488
G1 X223.318 Y205.659 E20.67624
G1 X222.648 Y206.571 E20.71388
G1 X221.451 Y208.007 E20.77606
G1 X220.022 Y209.789 E20.85203
G1 X219.426 Y210.468 E20.88208
G1 X218.576 Y211.264 E20.92081
G1 X217.513 Y212.151 E20.96686
G1 X216.116 Y213.259 E21.02616
G1 X215.349 Y213.812 E21.05761
G1 X214.292 Y214.42 E21.09817
G1 X213.397 Y214.868 E21.13146
G1 X212.507 Y215.299 E21.16435
G1 X210.551 Y216.308 E21.23755
G1 X209.698 Y216.7 E21.26877
G1 X208.808 Y217.017 E21.3002
G1 X208.138 Y217.214 E21.32342
G1 X206.349 Y217.686 E21.38496
G1 X205.505 Y217.895 E21.41388
G1 X204.58 Y218.079 E21.44525
G1 X203.47 Y218.19 E21.48235
G1 X202.521 Y218.233 E21.51395
G1 X201.465 Y218.267 E21.54909
G1 X199.261 Y218.392 E21.62251
G1 X198.321 Y218.403 E21.65378
G1 X197.341 Y218.325 E21.68648
G1 X196.678 Y218.234 E21.70874
G1 X194.919 Y217.949 E21.768
G1 X194.047 Y217.795 E21.79746
G1 X193.022 Y217.588 E21.83224
G1 X190.423 Y217.09 E21.92025
G1 X187.933 Y216.686 E22.00415
G1 X185.459 Y216.356 E22.08717
G1 X182.889 Y216.087 E22.17311
G1 X180.403 Y215.898 E22.25604
G1 X177.874 Y215.777 E22.34025
G1 X175.357 Y215.728 E22.42398
G1 X172.808 Y215.751 E22.50876
G1 X170.275 Y215.845 E22.59307
G1 X167.759 Y216.01 E22.67693
G1 X165.251 Y216.246 E22.76071
G1 X162.75 Y216.552 E22.84452
G1 X160.212 Y216.937 E22.9299
G1 X158.257 Y217.284 E22.99594
G1 X156.207 Y217.662 E23.06527
G1 X154.492 Y217.927 E23.12299
G1 X153.642 Y218.046 E23.15154
G1 X152.703 Y218.134 E23.1829
G1 X151.558 Y218.128 E23.22099
G1 X150.546 Y218.067 E23.25471
G1 X149.571 Y217.996 E23.28722
G1 X147.379 Y217.892 E23.36021
G1 X146.434 Y217.805 E23.39177
G1 X145.969 Y217.729 E23.40745
G1 X145.081 Y217.565 E23.43748
G1 X143.814 Y217.315 E23.48043
G1 X141.303 Y216.893 E23.56512
G1 X138.823 Y216.549 E23.6484
